luciancahil/rarf/cs5c01051_si_002/repo/data/DD_out-of-bag/Set-1.csv
Rx-MLS,DA3-4-5-6-MLS,DA4-5-1-2-MLS,DA4-5-6-7-MLS,DA9-10-11-14-MLS,DA9-10-11-12-MLS,DA1-5-6-7-MLS,DA1-12-11-14-MLS,DA1-5-4-20-MLS,DA6-5-4-20-MLS,BA1-2-3-MLS,BA3-4-20-MLS,BA1-5-4-MLS,BA5-4-20-MLS,BA5-6-7-MLS,BA7-6-22-MLS,BA10-11-12-MLS,BA10-11-14-MLS,BA1-12-11-MLS,BA5-1-12-MLS,NB1-12-MLS,NB7-12-MLS,BL1-2-MLS,BL5-6-MLS,BL6-7-MLS,BL11-12-MLS,BL4-20-MLS,BL4-19-MLS,BL6-22-MLS,BL10-15-MLS,HOMO-MLS,LUMO-MLS,DM-MLS,q1-MLS,q2-MLS,q3-MLS,q4-MLS,q5-MLS,q6-MLS,q7-MLS,q8-MLS,q9-MLS,q10-MLS,q11-MLS,q12-MLS,q13-MLS,q14-MLS,q15-MLS,q19-MLS,q20-MLS,q22-MLS,NMR1-MLS,NMR2-MLS,NMR3-MLS,NMR4-MLS,NMR5-MLS,NMR6-MLS,NMR7-MLS,NMR8-MLS,NMR9-MLS,NMR10-MLS,NMR11-MLS,NMR12-MLS,NMR13-MLS,NMR14-MLS,NMR15-MLS,NMR19-MLS,NMR20-MLS,NMR22-MLS,L-R14-MLS,B1-R14-MLS,B5-R14-MLS,L-R15-MLS,B1-R15-MLS,B5-R15-MLS,VF(C6=O7)-MLS,VI(C6=O7)-MLS,VF(C9=O13)-MLS,VI(C9=O13)-MLS,VF(C11-H12)-MLS,VI(C11-H12)-MLS,L-Y-MLS,B1-Y-MLS,B5-Y-MLS,L-X-MLS,B1-X-MLS,B5-X-MLS,L-R16-MLS,B1-R16-MLS,B5-R16-MLS,BV-MLS,BV-SW-MLS,BV-NW-MLS,BV-NE-MLS,BV-SE-MLS,Area-MLS,Volume-MLS,PSA-MLS,Ovality-MLS,HOMO-MC,LUMO-MC,DM-MC,Rx-MC,Ry-MC,Volume-MC,PSA-MC,Ovality-MC,q(Pd)-MC,DM-CP,HOMO-CP,LUMO-CP,Rx-CP,BL1-2-CP,BL1-6-CP,BL1-7-CP,NMR1-CP,NMR2-CP,NMR6-CP,NMR7-CP,q1-CP,q2-CP,q6-CP,Area-CP,Volume-CP,PSA-CP,Ovality-CP,Rx-B,Ry-B,Rz-B,DM-B,HOMO-B,LUMO-B,Area-B,Volume-B,PSA-B,Ovality-B,q(Ag)-A,Rx-A,Ry-A,Rz-A,HOMO-A,LUMO-A,DM-A,Area-A,Volume-A,PSA-A,Ovality-A,Eqv(L),Eqv(B),Eqv(A),Time(H)   ,T (?C),DC(Solvent),%ee
0.12643,144.8063544,10.02919616,171.9545406,131.3099258,12.57496832,16.54575578,80.29425792,112.9775266,91.42592813,114.701781,112.887433,116.358678,112.8658352,121.5729217,119.012381,123.7757069,60.8563894,111.8377314,91.93023108,1.845744414,2.31698285,2.017644806,1.355950886,1.245125558,1.137854206,1.56441259,1.098283442,1.525712624,1.096192534,-0.2123,-0.08601,11.7302,0.56227,-0.50695,0.69305,-0.1198,-0.62621,0.69535,-0.69226,-0.65782,0.70269,-0.33454,-0.44132,0.22671,-0.653,0.27526,0.27912,0.28166,-0.25024,-0.77909,-507.8453,73.0898,17.3432,124.627,134.2476,23.817,-57.9699,142.0198,20.0087,148.9295,165.8598,33.6184,-68.302,28.2336,28.2499,27.7929,147.1084,169.6489,4.21,1.93,4.37,2.97,1.5,2.03,1656.13,554.6147,1723.87,"	487.1603",2576.22,"	379.236",5.46,1.7,5.3,6.37,1.56,7.34,2,1,1,34.4,4.4,45.1,57.4,30.6,538.59,517.15,46.177,1.73,-0.24249,-0.10002,0.0049,1.28323,0.50214,156.95,19.206,1.5,0.34205,2.8114,-0.23057,-0.03193,5.50041,1.39235308,1.394750009,2.162820377,61.3323,61.6498,61.6615,46.0781,-0.20514,-0.24924,-0.24945,162.69,143.03,0,1.23,4.46899,0.40537,0.37165,7.3745,-0.19401,-0.08712,96.61,66.09,40.081,1.22,0.7618,4.46899,0.40537,0.37165,-0.19401,-0.08712,7.3745,96.61,66.09,40.081,1.22,15,2,2,48,80,4.7113,94
0.12643,144.8063544,10.02919616,171.9545406,131.3099258,12.57496832,16.54575578,80.29425792,112.9775266,91.42592813,114.701781,112.887433,116.358678,112.8658352,121.5729217,119.012381,123.7757069,60.8563894,111.8377314,91.93023108,1.845744414,2.31698285,2.017644806,1.355950886,1.245125558,1.137854206,1.56441259,1.098283442,1.525712624,1.096192534,-0.2123,-0.08601,11.7302,0.56227,-0.50695,0.69305,-0.1198,-0.62621,0.69535,-0.69226,-0.65782,0.70269,-0.33454,-0.44132,0.22671,-0.653,0.27526,0.27912,0.28166,-0.25024,-0.77909,-507.8453,73.0898,17.3432,124.627,134.2476,23.817,-57.9699,142.0198,20.0087,148.9295,165.8598,33.6184,-68.302,28.2336,28.2499,27.7929,147.1084,169.6489,4.21,1.93,4.37,2.97,1.5,2.03,1656.13,554.6147,1723.87,"	487.1603",2576.22,"	379.236",5.46,1.7,5.3,6.37,1.56,7.34,2,1,1,34.4,4.4,45.1,57.4,30.6,538.59,517.15,46.177,1.73,-0.24249,-0.10002,0.0049,1.28323,0.50214,156.95,19.206,1.5,0.34205,2.2418,-0.23755,-0.03342,5.65566,1.394468317,1.394165215,2.16341566,57.4384,61.3547,61.3111,45.7239,-0.19737,-0.25465,-0.25467,142.71,124.75,0,1.18,4.46899,0.40537,0.37165,7.3745,-0.19401,-0.08712,96.61,66.09,40.081,1.22,0.7618,4.46899,0.40537,0.37165,-0.19401,-0.08712,7.3745,96.61,66.09,40.081,1.22,15,2,2,48,80,4.7113,94
0.12643,144.8063544,10.02919616,171.9545406,131.3099258,12.57496832,16.54575578,80.29425792,112.9775266,91.42592813,114.701781,112.887433,116.358678,112.8658352,121.5729217,119.012381,123.7757069,60.8563894,111.8377314,91.93023108,1.845744414,2.31698285,2.017644806,1.355950886,1.245125558,1.137854206,1.56441259,1.098283442,1.525712624,1.096192534,-0.2123,-0.08601,11.7302,0.56227,-0.50695,0.69305,-0.1198,-0.62621,0.69535,-0.69226,-0.65782,0.70269,-0.33454,-0.44132,0.22671,-0.653,0.27526,0.27912,0.28166,-0.25024,-0.77909,-507.8453,73.0898,17.3432,124.627,134.2476,23.817,-57.9699,142.0198,20.0087,148.9295,165.8598,33.6184,-68.302,28.2336,28.2499,27.7929,147.1084,169.6489,4.21,1.93,4.37,2.97,1.5,2.03,1656.13,554.6147,1723.87,"	487.1603",2576.22,"	379.236",5.46,1.7,5.3,6.37,1.56,7.34,2,1,1,34.4,4.4,45.1,57.4,30.6,538.59,517.15,46.177,1.73,-0.24249,-0.10002,0.0049,1.28323,0.50214,156.95,19.206,1.5,0.34205,3.4705,-0.21616,-0.03096,4.77099,1.390945643,1.397272895,2.160167853,69.2649,60.5541,60.8977,46.3555,-0.22726,-0.23676,-0.24215,172.53,151.88,6.942,1.25,4.46899,0.40537,0.37165,7.3745,-0.19401,-0.08712,96.61,66.09,40.081,1.22,0.7618,4.46899,0.40537,0.37165,-0.19401,-0.08712,7.3745,96.61,66.09,40.081,1.22,15,2,2,48,80,4.7113,93
0.12643,144.8063544,10.02919616,171.9545406,131.3099258,12.57496832,16.54575578,80.29425792,112.9775266,91.42592813,114.701781,112.887433,116.358678,112.8658352,121.5729217,119.012381,123.7757069,60.8563894,111.8377314,91.93023108,1.845744414,2.31698285,2.017644806,1.355950886,1.245125558,1.137854206,1.56441259,1.098283442,1.525712624,1.096192534,-0.2123,-0.08601,11.7302,0.56227,-0.50695,0.69305,-0.1198,-0.62621,0.69535,-0.69226,-0.65782,0.70269,-0.33454,-0.44132,0.22671,-0.653,0.27526,0.27912,0.28166,-0.25024,-0.77909,-507.8453,73.0898,17.3432,124.627,134.2476,23.817,-57.9699,142.0198,20.0087,148.9295,165.8598,33.6184,-68.302,28.2336,28.2499,27.7929,147.1084,169.6489,4.21,1.93,4.37,2.97,1.5,2.03,1656.13,554.6147,1723.87,"	487.1603",2576.22,"	379.236",5.46,1.7,5.3,6.37,1.56,7.34,2,1,1,34.4,4.4,45.1,57.4,30.6,538.59,517.15,46.177,1.73,-0.24249,-0.10002,0.0049,1.28323,0.50214,156.95,19.206,1.5,0.34205,0.4419,-0.23535,-0.0356,5.62944,1.395494253,1.395172666,2.157895273,64.3072,59.8006,59.7582,45.7108,-0.21882,-0.23762,-0.23766,148.41,129.32,0,1.2,4.46899,0.40537,0.37165,7.3745,-0.19401,-0.08712,96.61,66.09,40.081,1.22,0.7618,4.46899,0.40537,0.37165,-0.19401,-0.08712,7.3745,96.61,66.09,40.081,1.22,15,2,2,48,80,4.7113,94
0.12643,144.8063544,10.02919616,171.9545406,131.3099258,12.57496832,16.54575578,80.29425792,112.9775266,91.42592813,114.701781,112.887433,116.358678,112.8658352,121.5729217,119.012381,123.7757069,60.8563894,111.8377314,91.93023108,1.845744414,2.31698285,2.017644806,1.355950886,1.245125558,1.137854206,1.56441259,1.098283442,1.525712624,1.096192534,-0.2123,-0.08601,11.7302,0.56227,-0.50695,0.69305,-0.1198,-0.62621,0.69535,-0.69226,-0.65782,0.70269,-0.33454,-0.44132,0.22671,-0.653,0.27526,0.27912,0.28166,-0.25024,-0.77909,-507.8453,73.0898,17.3432,124.627,134.2476,23.817,-57.9699,142.0198,20.0087,148.9295,165.8598,33.6184,-68.302,28.2336,28.2499,27.7929,147.1084,169.6489,4.21,1.93,4.37,2.97,1.5,2.03,1656.13,554.6147,1723.87,"	487.1603",2576.22,"	379.236",5.46,1.7,5.3,6.37,1.56,7.34,2,1,1,34.4,4.4,45.1,57.4,30.6,538.59,517.15,46.177,1.73,-0.24249,-0.10002,0.0049,1.28323,0.50214,156.95,19.206,1.5,0.34205,0.3444,-0.23817,-0.0375,5.63497,1.394624806,1.394274602,2.155782521,59.1381,60.2632,60.2323,45.5121,-0.207,-0.23735,-0.2374,158.4,138.42,0,1.22,4.46899,0.40537,0.37165,7.3745,-0.19401,-0.08712,96.61,66.09,40.081,1.22,0.7618,4.46899,0.40537,0.37165,-0.19401,-0.08712,7.3745,96.61,66.09,40.081,1.22,15,2,2,48,80,4.7113,90
0.12643,144.8063544,10.02919616,171.9545406,131.3099258,12.57496832,16.54575578,80.29425792,112.9775266,91.42592813,114.701781,112.887433,116.358678,112.8658352,121.5729217,119.012381,123.7757069,60.8563894,111.8377314,91.93023108,1.845744414,2.31698285,2.017644806,1.355950886,1.245125558,1.137854206,1.56441259,1.098283442,1.525712624,1.096192534,-0.2123,-0.08601,11.7302,0.56227,-0.50695,0.69305,-0.1198,-0.62621,0.69535,-0.69226,-0.65782,0.70269,-0.33454,-0.44132,0.22671,-0.653,0.27526,0.27912,0.28166,-0.25024,-0.77909,-507.8453,73.0898,17.3432,124.627,134.2476,23.817,-57.9699,142.0198,20.0087,148.9295,165.8598,33.6184,-68.302,28.2336,28.2499,27.7929,147.1084,169.6489,4.21,1.93,4.37,2.97,1.5,2.03,1656.13,554.6147,1723.87,"	487.1603",2576.22,"	379.236",5.46,1.7,5.3,6.37,1.56,7.34,2,1,1,34.4,4.4,45.1,57.4,30.6,538.59,517.15,46.177,1.73,-0.24249,-0.10002,0.0049,1.28323,0.50214,156.95,19.206,1.5,0.34205,0.7358,-0.23977,-0.03871,5.62759,1.394359126,1.394016573,2.155128875,58.0843,59.9129,59.8695,45.4722,-0.20567,-0.23476,-0.23482,163.5,143.24,0,1.23,4.46899,0.40537,0.37165,7.3745,-0.19401,-0.08712,96.61,66.09,40.081,1.22,0.7618,4.46899,0.40537,0.37165,-0.19401,-0.08712,7.3745,96.61,66.09,40.081,1.22,15,2,2,48,80,4.7113,94
0.12643,144.8063544,10.02919616,171.9545406,131.3099258,12.57496832,16.54575578,80.29425792,112.9775266,91.42592813,114.701781,112.887433,116.358678,112.8658352,121.5729217,119.012381,123.7757069,60.8563894,111.8377314,91.93023108,1.845744414,2.31698285,2.017644806,1.355950886,1.245125558,1.137854206,1.56441259,1.098283442,1.525712624,1.096192534,-0.2123,-0.08601,11.7302,0.56227,-0.50695,0.69305,-0.1198,-0.62621,0.69535,-0.69226,-0.65782,0.70269,-0.33454,-0.44132,0.22671,-0.653,0.27526,0.27912,0.28166,-0.25024,-0.77909,-507.8453,73.0898,17.3432,124.627,134.2476,23.817,-57.9699,142.0198,20.0087,148.9295,165.8598,33.6184,-68.302,28.2336,28.2499,27.7929,147.1084,169.6489,4.21,1.93,4.37,2.97,1.5,2.03,1656.13,554.6147,1723.87,"	487.1603",2576.22,"	379.236",5.46,1.7,5.3,6.37,1.56,7.34,2,1,1,34.4,4.4,45.1,57.4,30.6,538.59,517.15,46.177,1.73,-0.24249,-0.10002,0.0049,1.28323,0.50214,156.95,19.206,1.5,0.34205,1.128,-0.24717,-0.0384,2.81592,1.39389687,1.396257229,2.155114041,52.6552,61.0996,60.4824,45.1036,-0.19187,-0.24361,-0.24334,178.36,156.76,0,1.27,4.46899,0.40537,0.37165,7.3745,-0.19401,-0.08712,96.61,66.09,40.081,1.22,0.7618,4.46899,0.40537,0.37165,-0.19401,-0.08712,7.3745,96.61,66.09,40.081,1.22,15,2,2,48,80,4.7113,93
0.12643,144.8063544,10.02919616,171.9545406,131.3099258,12.57496832,16.54575578,80.29425792,112.9775266,91.42592813,114.701781,112.887433,116.358678,112.8658352,121.5729217,119.012381,123.7757069,60.8563894,111.8377314,91.93023108,1.845744414,2.31698285,2.017644806,1.355950886,1.245125558,1.137854206,1.56441259,1.098283442,1.525712624,1.096192534,-0.2123,-0.08601,11.7302,0.56227,-0.50695,0.69305,-0.1198,-0.62621,0.69535,-0.69226,-0.65782,0.70269,-0.33454,-0.44132,0.22671,-0.653,0.27526,0.27912,0.28166,-0.25024,-0.77909,-507.8453,73.0898,17.3432,124.627,134.2476,23.817,-57.9699,142.0198,20.0087,148.9295,165.8598,33.6184,-68.302,28.2336,28.2499,27.7929,147.1084,169.6489,4.21,1.93,4.37,2.97,1.5,2.03,1656.13,554.6147,1723.87,"	487.1603",2576.22,"	379.236",5.46,1.7,5.3,6.37,1.56,7.34,2,1,1,34.4,4.4,45.1,57.4,30.6,538.59,517.15,46.177,1.73,-0.24249,-0.10002,0.0049,1.28323,0.50214,156.95,19.206,1.5,0.34205,2.9143,-0.24364,-0.05882,3.6634,1.394615623,1.396727422,2.155017264,49.9777,61.1436,60.7322,45.2012,-0.1843,-0.25257,-0.25202,183.58,163.65,14.398,1.27,4.46899,0.40537,0.37165,7.3745,-0.19401,-0.08712,96.61,66.09,40.081,1.22,0.7618,4.46899,0.40537,0.37165,-0.19401,-0.08712,7.3745,96.61,66.09,40.081,1.22,15,2,2,48,80,4.7113,94
0.12643,144.8063544,10.02919616,171.9545406,131.3099258,12.57496832,16.54575578,80.29425792,112.9775266,91.42592813,114.701781,112.887433,116.358678,112.8658352,121.5729217,119.012381,123.7757069,60.8563894,111.8377314,91.93023108,1.845744414,2.31698285,2.017644806,1.355950886,1.245125558,1.137854206,1.56441259,1.098283442,1.525712624,1.096192534,-0.2123,-0.08601,11.7302,0.56227,-0.50695,0.69305,-0.1198,-0.62621,0.69535,-0.69226,-0.65782,0.70269,-0.33454,-0.44132,0.22671,-0.653,0.27526,0.27912,0.28166,-0.25024,-0.77909,-507.8453,73.0898,17.3432,124.627,134.2476,23.817,-57.9699,142.0198,20.0087,148.9295,165.8598,33.6184,-68.302,28.2336,28.2499,27.7929,147.1084,169.6489,4.21,1.93,4.37,2.97,1.5,2.03,1656.13,554.6147,1723.87,"	487.1603",2576.22,"	379.236",5.46,1.7,5.3,6.37,1.56,7.34,2,1,1,34.4,4.4,45.1,57.4,30.6,538.59,517.15,46.177,1.73,-0.24249,-0.10002,0.0049,1.28323,0.50214,156.95,19.206,1.5,0.34205,3.9102,-0.25406,-0.09382,3.94723,1.397448942,1.397106937,2.147642339,45.7921,59.938,59.8898,44.4926,-0.18404,-0.24198,-0.24206,168.18,146.18,38.95,1.25,4.46899,0.40537,0.37165,7.3745,-0.19401,-0.08712,96.61,66.09,40.081,1.22,0.7618,4.46899,0.40537,0.37165,-0.19401,-0.08712,7.3745,96.61,66.09,40.081,1.22,15,2,2,48,80,4.7113,92
0.12643,144.8063544,10.02919616,171.9545406,131.3099258,12.57496832,16.54575578,80.29425792,112.9775266,91.42592813,114.701781,112.887433,116.358678,112.8658352,121.5729217,119.012381,123.7757069,60.8563894,111.8377314,91.93023108,1.845744414,2.31698285,2.017644806,1.355950886,1.245125558,1.137854206,1.56441259,1.098283442,1.525712624,1.096192534,-0.2123,-0.08601,11.7302,0.56227,-0.50695,0.69305,-0.1198,-0.62621,0.69535,-0.69226,-0.65782,0.70269,-0.33454,-0.44132,0.22671,-0.653,0.27526,0.27912,0.28166,-0.25024,-0.77909,-507.8453,73.0898,17.3432,124.627,134.2476,23.817,-57.9699,142.0198,20.0087,148.9295,165.8598,33.6184,-68.302,28.2336,28.2499,27.7929,147.1084,169.6489,4.21,1.93,4.37,2.97,1.5,2.03,1656.13,554.6147,1723.87,"	487.1603",2576.22,"	379.236",5.46,1.7,5.3,6.37,1.56,7.34,2,1,1,34.4,4.4,45.1,57.4,30.6,538.59,517.15,46.177,1.73,-0.24249,-0.10002,0.0049,1.28323,0.50214,156.95,19.206,1.5,0.34205,3.8034,-0.2485,-0.05523,5.61316,1.396380598,1.396035234,2.151111355,49.6746,60.3776,60.3332,44.6859,-0.18719,-0.24583,-0.2459,163.53,144.24,15.386,1.23,4.46899,0.40537,0.37165,7.3745,-0.19401,-0.08712,96.61,66.09,40.081,1.22,0.7618,4.46899,0.40537,0.37165,-0.19401,-0.08712,7.3745,96.61,66.09,40.081,1.22,15,2,2,48,80,4.7113,94
0.12643,144.8063544,10.02919616,171.9545406,131.3099258,12.57496832,16.54575578,80.29425792,112.9775266,91.42592813,114.701781,112.887433,116.358678,112.8658352,121.5729217,119.012381,123.7757069,60.8563894,111.8377314,91.93023108,1.845744414,2.31698285,2.017644806,1.355950886,1.245125558,1.137854206,1.56441259,1.098283442,1.525712624,1.096192534,-0.2123,-0.08601,11.7302,0.56227,-0.50695,0.69305,-0.1198,-0.62621,0.69535,-0.69226,-0.65782,0.70269,-0.33454,-0.44132,0.22671,-0.653,0.27526,0.27912,0.28166,-0.25024,-0.77909,-507.8453,73.0898,17.3432,124.627,134.2476,23.817,-57.9699,142.0198,20.0087,148.9295,165.8598,33.6184,-68.302,28.2336,28.2499,27.7929,147.1084,169.6489,4.21,1.93,4.37,2.97,1.5,2.03,1656.13,554.6147,1723.87,"	487.1603",2576.22,"	379.236",5.46,1.7,5.3,6.37,1.56,7.34,2,1,1,34.4,4.4,45.1,57.4,30.6,538.59,517.15,46.177,1.73,-0.24249,-0.10002,0.0049,1.28323,0.50214,156.95,19.206,1.5,0.34205,2.5771,-0.23498,-0.03247,3.14875,1.39183363,1.394436267,2.165467308,57.8062,61.0129,64.3149,45.8662,-0.18779,-0.25289,-0.26496,162.66,143.04,0,1.23,4.46899,0.40537,0.37165,7.3745,-0.19401,-0.08712,96.61,66.09,40.081,1.22,0.7618,4.46899,0.40537,0.37165,-0.19401,-0.08712,7.3745,96.61,66.09,40.081,1.22,15,2,2,48,80,4.7113,93
0.12643,144.8063544,10.02919616,171.9545406,131.3099258,12.57496832,16.54575578,80.29425792,112.9775266,91.42592813,114.701781,112.887433,116.358678,112.8658352,121.5729217,119.012381,123.7757069,60.8563894,111.8377314,91.93023108,1.845744414,2.31698285,2.017644806,1.355950886,1.245125558,1.137854206,1.56441259,1.098283442,1.525712624,1.096192534,-0.2123,-0.08601,11.7302,0.56227,-0.50695,0.69305,-0.1198,-0.62621,0.69535,-0.69226,-0.65782,0.70269,-0.33454,-0.44132,0.22671,-0.653,0.27526,0.27912,0.28166,-0.25024,-0.77909,-507.8453,73.0898,17.3432,124.627,134.2476,23.817,-57.9699,142.0198,20.0087,148.9295,165.8598,33.6184,-68.302,28.2336,28.2499,27.7929,147.1084,169.6489,4.21,1.93,4.37,2.97,1.5,2.03,1656.13,554.6147,1723.87,"	487.1603",2576.22,"	379.236",5.46,1.7,5.3,6.37,1.56,7.34,2,1,1,34.4,4.4,45.1,57.4,30.6,538.59,517.15,46.177,1.73,-0.24249,-0.10002,0.0049,1.28323,0.50214,156.95,19.206,1.5,0.34205,4.0129,-0.22347,-0.03302,2.81681,1.387608913,1.396655866,2.162822324,57.9543,72.751,69.7962,45.7208,-0.18412,-0.30134,-0.28786,172.48,151.88,6.928,1.25,4.46899,0.40537,0.37165,7.3745,-0.19401,-0.08712,96.61,66.09,40.081,1.22,0.7618,4.46899,0.40537,0.37165,-0.19401,-0.08712,7.3745,96.61,66.09,40.081,1.22,15,2,2,48,80,4.7113,92
0.12643,144.8063544,10.02919616,171.9545406,131.3099258,12.57496832,16.54575578,80.29425792,112.9775266,91.42592813,114.701781,112.887433,116.358678,112.8658352,121.5729217,119.012381,123.7757069,60.8563894,111.8377314,91.93023108,1.845744414,2.31698285,2.017644806,1.355950886,1.245125558,1.137854206,1.56441259,1.098283442,1.525712624,1.096192534,-0.2123,-0.08601,11.7302,0.56227,-0.50695,0.69305,-0.1198,-0.62621,0.69535,-0.69226,-0.65782,0.70269,-0.33454,-0.44132,0.22671,-0.653,0.27526,0.27912,0.28166,-0.25024,-0.77909,-507.8453,73.0898,17.3432,124.627,134.2476,23.817,-57.9699,142.0198,20.0087,148.9295,165.8598,33.6184,-68.302,28.2336,28.2499,27.7929,147.1084,169.6489,4.21,1.93,4.37,2.97,1.5,2.03,1656.13,554.6147,1723.87,"	487.1603",2576.22,"	379.236",5.46,1.7,5.3,6.37,1.56,7.34,2,1,1,34.4,4.4,45.1,57.4,30.6,538.59,517.15,46.177,1.73,-0.24249,-0.10002,0.0049,1.28323,0.50214,156.95,19.206,1.5,0.34205,1.8605,-0.24105,-0.03756,3.24017,1.393993439,1.394895044,2.157139171,57.3651,73.3037,65.621,45.1945,-0.19148,-0.32246,-0.26983,148.36,129.31,0,1.2,4.46899,0.40537,0.37165,7.3745,-0.19401,-0.08712,96.61,66.09,40.081,1.22,0.7618,4.46899,0.40537,0.37165,-0.19401,-0.08712,7.3745,96.61,66.09,40.081,1.22,15,2,2,48,80,4.7113,92
0.12643,144.8063544,10.02919616,171.9545406,131.3099258,12.57496832,16.54575578,80.29425792,112.9775266,91.42592813,114.701781,112.887433,116.358678,112.8658352,121.5729217,119.012381,123.7757069,60.8563894,111.8377314,91.93023108,1.845744414,2.31698285,2.017644806,1.355950886,1.245125558,1.137854206,1.56441259,1.098283442,1.525712624,1.096192534,-0.2123,-0.08601,11.7302,0.56227,-0.50695,0.69305,-0.1198,-0.62621,0.69535,-0.69226,-0.65782,0.70269,-0.33454,-0.44132,0.22671,-0.653,0.27526,0.27912,0.28166,-0.25024,-0.77909,-507.8453,73.0898,17.3432,124.627,134.2476,23.817,-57.9699,142.0198,20.0087,148.9295,165.8598,33.6184,-68.302,28.2336,28.2499,27.7929,147.1084,169.6489,4.21,1.93,4.37,2.97,1.5,2.03,1656.13,554.6147,1723.87,"	487.1603",2576.22,"	379.236",5.46,1.7,5.3,6.37,1.56,7.34,2,1,1,34.4,4.4,45.1,57.4,30.6,538.59,517.15,46.177,1.73,-0.24249,-0.10002,0.0049,1.28323,0.50214,156.95,19.206,1.5,0.34205,2.1669,-0.2431,-0.04151,2.43489,1.394308657,1.394149206,2.156506578,57.1558,62.0712,62.5886,45.0737,-0.1921,-0.26542,-0.25322,158.36,138.42,0,1.22,4.46899,0.40537,0.37165,7.3745,-0.19401,-0.08712,96.61,66.09,40.081,1.22,0.7618,4.46899,0.40537,0.37165,-0.19401,-0.08712,7.3745,96.61,66.09,40.081,1.22,15,2,2,48,80,4.7113,90
0.12643,144.8063544,10.02919616,171.9545406,131.3099258,12.57496832,16.54575578,80.29425792,112.9775266,91.42592813,114.701781,112.887433,116.358678,112.8658352,121.5729217,119.012381,123.7757069,60.8563894,111.8377314,91.93023108,1.845744414,2.31698285,2.017644806,1.355950886,1.245125558,1.137854206,1.56441259,1.098283442,1.525712624,1.096192534,-0.2123,-0.08601,11.7302,0.56227,-0.50695,0.69305,-0.1198,-0.62621,0.69535,-0.69226,-0.65782,0.70269,-0.33454,-0.44132,0.22671,-0.653,0.27526,0.27912,0.28166,-0.25024,-0.77909,-507.8453,73.0898,17.3432,124.627,134.2476,23.817,-57.9699,142.0198,20.0087,148.9295,165.8598,33.6184,-68.302,28.2336,28.2499,27.7929,147.1084,169.6489,4.21,1.93,4.37,2.97,1.5,2.03,1656.13,554.6147,1723.87,"	487.1603",2576.22,"	379.236",5.46,1.7,5.3,6.37,1.56,7.34,2,1,1,34.4,4.4,45.1,57.4,30.6,538.59,517.15,46.177,1.73,-0.24249,-0.10002,0.0049,1.28323,0.50214,156.95,19.206,1.5,0.34205,2.6337,-0.24585,-0.03856,1.57157,1.392657519,1.394859398,2.15564652,56.8668,63.4672,57.7799,45.0933,-0.19873,-0.22529,-0.23392,178.24,156.74,0,1.27,4.46899,0.40537,0.37165,7.3745,-0.19401,-0.08712,96.61,66.09,40.081,1.22,0.7618,4.46899,0.40537,0.37165,-0.19401,-0.08712,7.3745,96.61,66.09,40.081,1.22,15,2,2,48,80,4.7113,90
0.12643,144.8063544,10.02919616,171.9545406,131.3099258,12.57496832,16.54575578,80.29425792,112.9775266,91.42592813,114.701781,112.887433,116.358678,112.8658352,121.5729217,119.012381,123.7757069,60.8563894,111.8377314,91.93023108,1.845744414,2.31698285,2.017644806,1.355950886,1.245125558,1.137854206,1.56441259,1.098283442,1.525712624,1.096192534,-0.2123,-0.08601,11.7302,0.56227,-0.50695,0.69305,-0.1198,-0.62621,0.69535,-0.69226,-0.65782,0.70269,-0.33454,-0.44132,0.22671,-0.653,0.27526,0.27912,0.28166,-0.25024,-0.77909,-507.8453,73.0898,17.3432,124.627,134.2476,23.817,-57.9699,142.0198,20.0087,148.9295,165.8598,33.6184,-68.302,28.2336,28.2499,27.7929,147.1084,169.6489,4.21,1.93,4.37,2.97,1.5,2.03,1656.13,554.6147,1723.87,"	487.1603",2576.22,"	379.236",5.46,1.7,5.3,6.37,1.56,7.34,2,1,1,34.4,4.4,45.1,57.4,30.6,538.59,517.15,46.177,1.73,-0.24249,-0.10002,0.0049,1.28323,0.50214,156.95,19.206,1.5,0.34205,4.3436,-0.21082,-0.03194,2.47964,1.391932499,1.394923353,2.159667331,69.1479,72.7594,68.8501,46.084,-0.21063,-0.2902,-0.26956,183.89,166.77,14.9,1.26,4.46899,0.40537,0.37165,7.3745,-0.19401,-0.08712,96.61,66.09,40.081,1.22,0.7618,4.46899,0.40537,0.37165,-0.19401,-0.08712,7.3745,96.61,66.09,40.081,1.22,15,2,2,48,80,4.7113,92
0.12643,144.8063544,10.02919616,171.9545406,131.3099258,12.57496832,16.54575578,80.29425792,112.9775266,91.42592813,114.701781,112.887433,116.358678,112.8658352,121.5729217,119.012381,123.7757069,60.8563894,111.8377314,91.93023108,1.845744414,2.31698285,2.017644806,1.355950886,1.245125558,1.137854206,1.56441259,1.098283442,1.525712624,1.096192534,-0.2123,-0.08601,11.7302,0.56227,-0.50695,0.69305,-0.1198,-0.62621,0.69535,-0.69226,-0.65782,0.70269,-0.33454,-0.44132,0.22671,-0.653,0.27526,0.27912,0.28166,-0.25024,-0.77909,-507.8453,73.0898,17.3432,124.627,134.2476,23.817,-57.9699,142.0198,20.0087,148.9295,165.8598,33.6184,-68.302,28.2336,28.2499,27.7929,147.1084,169.6489,4.21,1.93,4.37,2.97,1.5,2.03,1656.13,554.6147,1723.87,"	487.1603",2576.22,"	379.236",5.46,1.7,5.3,6.37,1.56,7.34,2,1,1,34.4,4.4,45.1,57.4,30.6,538.59,517.15,46.177,1.73,-0.24249,-0.10002,0.0049,1.28323,0.50214,156.95,19.206,1.5,0.34205,1.9606,-0.24239,-0.04231,0.80203,1.403757912,1.396415407,2.166524837,57.3905,58.3581,58.9702,44.7301,-0.1712,-0.17305,-0.24998,194.38,172.97,19.963,1.29,4.46899,0.40537,0.37165,7.3745,-0.19401,-0.08712,96.61,66.09,40.081,1.22,0.7618,4.46899,0.40537,0.37165,-0.19401,-0.08712,7.3745,96.61,66.09,40.081,1.22,15,2,2,48,80,4.7113,94
0.12643,144.8063544,10.02919616,171.9545406,131.3099258,12.57496832,16.54575578,80.29425792,112.9775266,91.42592813,114.701781,112.887433,116.358678,112.8658352,121.5729217,119.012381,123.7757069,60.8563894,111.8377314,91.93023108,1.845744414,2.31698285,2.017644806,1.355950886,1.245125558,1.137854206,1.56441259,1.098283442,1.525712624,1.096192534,-0.2123,-0.08601,11.7302,0.56227,-0.50695,0.69305,-0.1198,-0.62621,0.69535,-0.69226,-0.65782,0.70269,-0.33454,-0.44132,0.22671,-0.653,0.27526,0.27912,0.28166,-0.25024,-0.77909,-507.8453,73.0898,17.3432,124.627,134.2476,23.817,-57.9699,142.0198,20.0087,148.9295,165.8598,33.6184,-68.302,28.2336,28.2499,27.7929,147.1084,169.6489,4.21,1.93,4.37,2.97,1.5,2.03,1656.13,554.6147,1723.87,"	487.1603",2576.22,"	379.236",5.46,1.7,5.3,6.37,1.56,7.34,2,1,1,34.4,4.4,45.1,57.4,30.6,538.59,517.15,46.177,1.73,-0.24249,-0.10002,0.0049,1.28323,0.50214,156.95,19.206,1.5,0.34205,2.9133,-0.24011,-0.03711,2.80482,1.395918373,1.393388078,2.144179314,72.3237,59.5377,36.0699,46.8688,-0.28528,-0.23749,0.41355,147.87,129.22,0,1.2,4.46899,0.40537,0.37165,7.3745,-0.19401,-0.08712,96.61,66.09,40.081,1.22,0.7618,4.46899,0.40537,0.37165,-0.19401,-0.08712,7.3745,96.61,66.09,40.081,1.22,15,2,2,48,80,4.7113,86
0.12643,144.8063544,10.02919616,171.9545406,131.3099258,12.57496832,16.54575578,80.29425792,112.9775266,91.42592813,114.701781,112.887433,116.358678,112.8658352,121.5729217,119.012381,123.7757069,60.8563894,111.8377314,91.93023108,1.845744414,2.31698285,2.017644806,1.355950886,1.245125558,1.137854206,1.56441259,1.098283442,1.525712624,1.096192534,-0.2123,-0.08601,11.7302,0.56227,-0.50695,0.69305,-0.1198,-0.62621,0.69535,-0.69226,-0.65782,0.70269,-0.33454,-0.44132,0.22671,-0.653,0.27526,0.27912,0.28166,-0.25024,-0.77909,-507.8453,73.0898,17.3432,124.627,134.2476,23.817,-57.9699,142.0198,20.0087,148.9295,165.8598,33.6184,-68.302,28.2336,28.2499,27.7929,147.1084,169.6489,4.21,1.93,4.37,2.97,1.5,2.03,1656.13,554.6147,1723.87,"	487.1603",2576.22,"	379.236",5.46,1.7,5.3,6.37,1.56,7.34,2,1,1,34.4,4.4,45.1,57.4,30.6,538.59,517.15,46.177,1.73,-0.24249,-0.10002,0.0049,1.28323,0.50214,156.95,19.206,1.5,0.34205,2.8877,-0.23231,-0.03146,1.75206,1.394880136,1.38910341,2.166940815,58.5231,63.9837,63.9063,46.0252,-0.17839,-0.26589,-0.26271,182.58,161.32,0,1.27,4.46899,0.40537,0.37165,7.3745,-0.19401,-0.08712,96.61,66.09,40.081,1.22,0.7618,4.46899,0.40537,0.37165,-0.19401,-0.08712,7.3745,96.61,66.09,40.081,1.22,15,2,2,48,80,4.7113,88
0.12643,144.8063544,10.02919616,171.9545406,131.3099258,12.57496832,16.54575578,80.29425792,112.9775266,91.42592813,114.701781,112.887433,116.358678,112.8658352,121.5729217,119.012381,123.7757069,60.8563894,111.8377314,91.93023108,1.845744414,2.31698285,2.017644806,1.355950886,1.245125558,1.137854206,1.56441259,1.098283442,1.525712624,1.096192534,-0.2123,-0.08601,11.7302,0.56227,-0.50695,0.69305,-0.1198,-0.62621,0.69535,-0.69226,-0.65782,0.70269,-0.33454,-0.44132,0.22671,-0.653,0.27526,0.27912,0.28166,-0.25024,-0.77909,-507.8453,73.0898,17.3432,124.627,134.2476,23.817,-57.9699,142.0198,20.0087,148.9295,165.8598,33.6184,-68.302,28.2336,28.2499,27.7929,147.1084,169.6489,4.21,1.93,4.37,2.97,1.5,2.03,1656.13,554.6147,1723.87,"	487.1603",2576.22,"	379.236",5.46,1.7,5.3,6.37,1.56,7.34,2,1,1,34.4,4.4,45.1,57.4,30.6,538.59,517.15,46.177,1.73,-0.24249,-0.10002,0.0049,1.28323,0.50214,156.95,19.206,1.5,0.34205,1.2654,-0.25357,-0.04731,0.38014,1.394028116,1.392246144,2.148550485,55.6882,60.0233,59.5476,44.4534,-0.19881,-0.20578,-0.20567,213.73,188.72,0,1.34,4.46899,0.40537,0.37165,7.3745,-0.19401,-0.08712,96.61,66.09,40.081,1.22,0.7618,4.46899,0.40537,0.37165,-0.19401,-0.08712,7.3745,96.61,66.09,40.081,1.22,15,2,2,48,80,4.7113,90
0.12643,144.8063544,10.02919616,171.9545406,131.3099258,12.57496832,16.54575578,80.29425792,112.9775266,91.42592813,114.701781,112.887433,116.358678,112.8658352,121.5729217,119.012381,123.7757069,60.8563894,111.8377314,91.93023108,1.845744414,2.31698285,2.017644806,1.355950886,1.245125558,1.137854206,1.56441259,1.098283442,1.525712624,1.096192534,-0.2123,-0.08601,11.7302,0.56227,-0.50695,0.69305,-0.1198,-0.62621,0.69535,-0.69226,-0.65782,0.70269,-0.33454,-0.44132,0.22671,-0.653,0.27526,0.27912,0.28166,-0.25024,-0.77909,-507.8453,73.0898,17.3432,124.627,134.2476,23.817,-57.9699,142.0198,20.0087,148.9295,165.8598,33.6184,-68.302,28.2336,28.2499,27.7929,147.1084,169.6489,4.21,1.93,4.37,2.97,1.5,2.03,1656.13,554.6147,1723.87,"	487.1603",2576.22,"	379.236",5.46,1.7,5.3,6.37,1.56,7.34,2,1,1,34.4,4.4,45.1,57.4,30.6,538.59,517.15,46.177,1.73,-0.24249,-0.10002,0.0049,1.28323,0.50214,156.95,19.206,1.5,0.34205,2.231,-0.21991,-0.03893,5.13252,1.335494343,1.08272004,2.14141505,75.582,53.8457,24.886,47.7132,-0.40296,-0.24308,0.26548,176.68,157.1,0,1.25,4.46899,0.40537,0.37165,7.3745,-0.19401,-0.08712,96.61,66.09,40.081,1.22,0.7618,4.46899,0.40537,0.37165,-0.19401,-0.08712,7.3745,96.61,66.09,40.081,1.22,15,2,2,48,60,4.7113,92
0.12643,144.8063544,10.02919616,171.9545406,131.3099258,12.57496832,16.54575578,80.29425792,112.9775266,91.42592813,114.701781,112.887433,116.358678,112.8658352,121.5729217,119.012381,123.7757069,60.8563894,111.8377314,91.93023108,1.845744414,2.31698285,2.017644806,1.355950886,1.245125558,1.137854206,1.56441259,1.098283442,1.525712624,1.096192534,-0.2123,-0.08601,11.7302,0.56227,-0.50695,0.69305,-0.1198,-0.62621,0.69535,-0.69226,-0.65782,0.70269,-0.33454,-0.44132,0.22671,-0.653,0.27526,0.27912,0.28166,-0.25024,-0.77909,-507.8453,73.0898,17.3432,124.627,134.2476,23.817,-57.9699,142.0198,20.0087,148.9295,165.8598,33.6184,-68.302,28.2336,28.2499,27.7929,147.1084,169.6489,4.21,1.93,4.37,2.97,1.5,2.03,1656.13,554.6147,1723.87,"	487.1603",2576.22,"	379.236",5.46,1.7,5.3,6.37,1.56,7.34,2,1,1,34.4,4.4,45.1,57.4,30.6,538.59,517.15,46.177,1.73,-0.24249,-0.10002,0.0049,1.28323,0.50214,156.95,19.206,1.5,0.34205,2.9322,-0.21442,-0.03601,4.92053,1.335742127,1.082720712,2.142616882,77.1626,53.9408,25.0131,47.8466,-0.40688,-0.2417,0.26492,196.72,175.39,0,1.3,4.46899,0.40537,0.37165,7.3745,-0.19401,-0.08712,96.61,66.09,40.081,1.22,0.7618,4.46899,0.40537,0.37165,-0.19401,-0.08712,7.3745,96.61,66.09,40.081,1.22,15,2,2,48,60,4.7113,94
0.12643,144.8063544,10.02919616,171.9545406,131.3099258,12.57496832,16.54575578,80.29425792,112.9775266,91.42592813,114.701781,112.887433,116.358678,112.8658352,121.5729217,119.012381,123.7757069,60.8563894,111.8377314,91.93023108,1.845744414,2.31698285,2.017644806,1.355950886,1.245125558,1.137854206,1.56441259,1.098283442,1.525712624,1.096192534,-0.2123,-0.08601,11.7302,0.56227,-0.50695,0.69305,-0.1198,-0.62621,0.69535,-0.69226,-0.65782,0.70269,-0.33454,-0.44132,0.22671,-0.653,0.27526,0.27912,0.28166,-0.25024,-0.77909,-507.8453,73.0898,17.3432,124.627,134.2476,23.817,-57.9699,142.0198,20.0087,148.9295,165.8598,33.6184,-68.302,28.2336,28.2499,27.7929,147.1084,169.6489,4.21,1.93,4.37,2.97,1.5,2.03,1656.13,554.6147,1723.87,"	487.1603",2576.22,"	379.236",5.46,1.7,5.3,6.37,1.56,7.34,2,1,1,34.4,4.4,45.1,57.4,30.6,538.59,517.15,46.177,1.73,-0.24249,-0.10002,0.0049,1.28323,0.50214,156.95,19.206,1.5,0.34205,0.6397,-0.21856,-0.03854,5.02257,1.335623117,1.08277646,2.140849981,76.4485,54.9247,24.9933,47.6945,-0.40588,-0.24305,0.26526,182.43,161.69,0,1.27,4.46899,0.40537,0.37165,7.3745,-0.19401,-0.08712,96.61,66.09,40.081,1.22,0.7618,4.46899,0.40537,0.37165,-0.19401,-0.08712,7.3745,96.61,66.09,40.081,1.22,15,2,2,48,60,4.7113,94
0.12643,144.8063544,10.02919616,171.9545406,131.3099258,12.57496832,16.54575578,80.29425792,112.9775266,91.42592813,114.701781,112.887433,116.358678,112.8658352,121.5729217,119.012381,123.7757069,60.8563894,111.8377314,91.93023108,1.845744414,2.31698285,2.017644806,1.355950886,1.245125558,1.137854206,1.56441259,1.098283442,1.525712624,1.096192534,-0.2123,-0.08601,11.7302,0.56227,-0.50695,0.69305,-0.1198,-0.62621,0.69535,-0.69226,-0.65782,0.70269,-0.33454,-0.44132,0.22671,-0.653,0.27526,0.27912,0.28166,-0.25024,-0.77909,-507.8453,73.0898,17.3432,124.627,134.2476,23.817,-57.9699,142.0198,20.0087,148.9295,165.8598,33.6184,-68.302,28.2336,28.2499,27.7929,147.1084,169.6489,4.21,1.93,4.37,2.97,1.5,2.03,1656.13,554.6147,1723.87,"	487.1603",2576.22,"	379.236",5.46,1.7,5.3,6.37,1.56,7.34,2,1,1,34.4,4.4,45.1,57.4,30.6,538.59,517.15,46.177,1.73,-0.24249,-0.10002,0.0049,1.28323,0.50214,156.95,19.206,1.5,0.34205,0.3782,-0.2218,-0.04603,4.95312,1.33563469,1.082849985,2.138978017,73.9512,55.1896,24.8708,47.5293,-0.40046,-0.24561,0.26623,192.42,170.79,0,1.29,4.46899,0.40537,0.37165,7.3745,-0.19401,-0.08712,96.61,66.09,40.081,1.22,0.7618,4.46899,0.40537,0.37165,-0.19401,-0.08712,7.3745,96.61,66.09,40.081,1.22,15,2,2,48,60,4.7113,94
0.12643,144.8063544,10.02919616,171.9545406,131.3099258,12.57496832,16.54575578,80.29425792,112.9775266,91.42592813,114.701781,112.887433,116.358678,112.8658352,121.5729217,119.012381,123.7757069,60.8563894,111.8377314,91.93023108,1.845744414,2.31698285,2.017644806,1.355950886,1.245125558,1.137854206,1.56441259,1.098283442,1.525712624,1.096192534,-0.2123,-0.08601,11.7302,0.56227,-0.50695,0.69305,-0.1198,-0.62621,0.69535,-0.69226,-0.65782,0.70269,-0.33454,-0.44132,0.22671,-0.653,0.27526,0.27912,0.28166,-0.25024,-0.77909,-507.8453,73.0898,17.3432,124.627,134.2476,23.817,-57.9699,142.0198,20.0087,148.9295,165.8598,33.6184,-68.302,28.2336,28.2499,27.7929,147.1084,169.6489,4.21,1.93,4.37,2.97,1.5,2.03,1656.13,554.6147,1723.87,"	487.1603",2576.22,"	379.236",5.46,1.7,5.3,6.37,1.56,7.34,2,1,1,34.4,4.4,45.1,57.4,30.6,538.59,517.15,46.177,1.73,-0.24249,-0.10002,0.0049,1.28323,0.50214,156.95,19.206,1.5,0.34205,0.8137,-0.22347,-0.04741,4.86997,1.335531035,1.082873527,2.138409138,73.3154,55.4148,24.8793,47.4929,-0.399,-0.24617,0.26652,197.52,175.62,0,1.3,4.46899,0.40537,0.37165,7.3745,-0.19401,-0.08712,96.61,66.09,40.081,1.22,0.7618,4.46899,0.40537,0.37165,-0.19401,-0.08712,7.3745,96.61,66.09,40.081,1.22,15,2,2,48,60,4.7113,94
0.12643,144.8063544,10.02919616,171.9545406,131.3099258,12.57496832,16.54575578,80.29425792,112.9775266,91.42592813,114.701781,112.887433,116.358678,112.8658352,121.5729217,119.012381,123.7757069,60.8563894,111.8377314,91.93023108,1.845744414,2.31698285,2.017644806,1.355950886,1.245125558,1.137854206,1.56441259,1.098283442,1.525712624,1.096192534,-0.2123,-0.08601,11.7302,0.56227,-0.50695,0.69305,-0.1198,-0.62621,0.69535,-0.69226,-0.65782,0.70269,-0.33454,-0.44132,0.22671,-0.653,0.27526,0.27912,0.28166,-0.25024,-0.77909,-507.8453,73.0898,17.3432,124.627,134.2476,23.817,-57.9699,142.0198,20.0087,148.9295,165.8598,33.6184,-68.302,28.2336,28.2499,27.7929,147.1084,169.6489,4.21,1.93,4.37,2.97,1.5,2.03,1656.13,554.6147,1723.87,"	487.1603",2576.22,"	379.236",5.46,1.7,5.3,6.37,1.56,7.34,2,1,1,34.4,4.4,45.1,57.4,30.6,538.59,517.15,46.177,1.73,-0.24249,-0.10002,0.0049,1.28323,0.50214,156.95,19.206,1.5,0.34205,1.9683,-0.21224,-0.03783,1.92734,1.335383929,1.082756095,2.141899834,75.0736,53.3418,24.9466,47.7054,-0.40165,-0.24245,0.26665,206.46,184.23,6.943,1.32,4.46899,0.40537,0.37165,7.3745,-0.19401,-0.08712,96.61,66.09,40.081,1.22,0.7618,4.46899,0.40537,0.37165,-0.19401,-0.08712,7.3745,96.61,66.09,40.081,1.22,15,2,2,48,60,4.7113,94
0.12643,144.8063544,10.02919616,171.9545406,131.3099258,12.57496832,16.54575578,80.29425792,112.9775266,91.42592813,114.701781,112.887433,116.358678,112.8658352,121.5729217,119.012381,123.7757069,60.8563894,111.8377314,91.93023108,1.845744414,2.31698285,2.017644806,1.355950886,1.245125558,1.137854206,1.56441259,1.098283442,1.525712624,1.096192534,-0.2123,-0.08601,11.7302,0.56227,-0.50695,0.69305,-0.1198,-0.62621,0.69535,-0.69226,-0.65782,0.70269,-0.33454,-0.44132,0.22671,-0.653,0.27526,0.27912,0.28166,-0.25024,-0.77909,-507.8453,73.0898,17.3432,124.627,134.2476,23.817,-57.9699,142.0198,20.0087,148.9295,165.8598,33.6184,-68.302,28.2336,28.2499,27.7929,147.1084,169.6489,4.21,1.93,4.37,2.97,1.5,2.03,1656.13,554.6147,1723.87,"	487.1603",2576.22,"	379.236",5.46,1.7,5.3,6.37,1.56,7.34,2,1,1,34.4,4.4,45.1,57.4,30.6,538.59,517.15,46.177,1.73,-0.24249,-0.10002,0.0049,1.28323,0.50214,156.95,19.206,1.5,0.34205,2.2689,-0.22596,-0.04711,1.84934,1.335325104,1.082896572,2.138270698,72.8818,55.3404,24.8169,47.4372,-0.39741,-0.24636,0.26716,192.36,170.8,0,1.29,4.46899,0.40537,0.37165,7.3745,-0.19401,-0.08712,96.61,66.09,40.081,1.22,0.7618,4.46899,0.40537,0.37165,-0.19401,-0.08712,7.3745,96.61,66.09,40.081,1.22,15,2,2,48,60,4.7113,93
0.12643,144.8063544,10.02919616,171.9545406,131.3099258,12.57496832,16.54575578,80.29425792,112.9775266,91.42592813,114.701781,112.887433,116.358678,112.8658352,121.5729217,119.012381,123.7757069,60.8563894,111.8377314,91.93023108,1.845744414,2.31698285,2.017644806,1.355950886,1.245125558,1.137854206,1.56441259,1.098283442,1.525712624,1.096192534,-0.2123,-0.08601,11.7302,0.56227,-0.50695,0.69305,-0.1198,-0.62621,0.69535,-0.69226,-0.65782,0.70269,-0.33454,-0.44132,0.22671,-0.653,0.27526,0.27912,0.28166,-0.25024,-0.77909,-507.8453,73.0898,17.3432,124.627,134.2476,23.817,-57.9699,142.0198,20.0087,148.9295,165.8598,33.6184,-68.302,28.2336,28.2499,27.7929,147.1084,169.6489,4.21,1.93,4.37,2.97,1.5,2.03,1656.13,554.6147,1723.87,"	487.1603",2576.22,"	379.236",5.46,1.7,5.3,6.37,1.56,7.34,2,1,1,34.4,4.4,45.1,57.4,30.6,538.59,517.15,46.177,1.73,-0.24249,-0.10002,0.0049,1.28323,0.50214,156.95,19.206,1.5,0.34205,2.5325,-0.22742,-0.0482,1.32253,1.335232472,1.083106655,2.137573662,72.5105,55.4027,24.9048,47.4013,-0.39751,-0.24651,0.26766,197.51,175.63,0,1.3,4.46899,0.40537,0.37165,7.3745,-0.19401,-0.08712,96.61,66.09,40.081,1.22,0.7618,4.46899,0.40537,0.37165,-0.19401,-0.08712,7.3745,96.61,66.09,40.081,1.22,15,2,2,48,60,4.7113,92
0.12643,144.8063544,10.02919616,171.9545406,131.3099258,12.57496832,16.54575578,80.29425792,112.9775266,91.42592813,114.701781,112.887433,116.358678,112.8658352,121.5729217,119.012381,123.7757069,60.8563894,111.8377314,91.93023108,1.845744414,2.31698285,2.017644806,1.355950886,1.245125558,1.137854206,1.56441259,1.098283442,1.525712624,1.096192534,-0.2123,-0.08601,11.7302,0.56227,-0.50695,0.69305,-0.1198,-0.62621,0.69535,-0.69226,-0.65782,0.70269,-0.33454,-0.44132,0.22671,-0.653,0.27526,0.27912,0.28166,-0.25024,-0.77909,-507.8453,73.0898,17.3432,124.627,134.2476,23.817,-57.9699,142.0198,20.0087,148.9295,165.8598,33.6184,-68.302,28.2336,28.2499,27.7929,147.1084,169.6489,4.21,1.93,4.37,2.97,1.5,2.03,1656.13,554.6147,1723.87,"	487.1603",2576.22,"	379.236",5.46,1.7,5.3,6.37,1.56,7.34,2,1,1,34.4,4.4,45.1,57.4,30.6,538.59,517.15,46.177,1.73,-0.24249,-0.10002,0.0049,1.28323,0.50214,156.95,19.206,1.5,0.34205,3.9255,-0.20998,-0.03486,1.50333,1.335223145,1.083194528,2.144249834,76.9592,58.1891,25.3059,47.8378,-0.40711,-0.24238,0.26566,205.69,184.14,5.897,1.31,4.46899,0.40537,0.37165,7.3745,-0.19401,-0.08712,96.61,66.09,40.081,1.22,0.7618,4.46899,0.40537,0.37165,-0.19401,-0.08712,7.3745,96.61,66.09,40.081,1.22,15,2,2,48,60,4.7113,92
0.12643,144.8063544,10.02919616,171.9545406,131.3099258,12.57496832,16.54575578,80.29425792,112.9775266,91.42592813,114.701781,112.887433,116.358678,112.8658352,121.5729217,119.012381,123.7757069,60.8563894,111.8377314,91.93023108,1.845744414,2.31698285,2.017644806,1.355950886,1.245125558,1.137854206,1.56441259,1.098283442,1.525712624,1.096192534,-0.2123,-0.08601,11.7302,0.56227,-0.50695,0.69305,-0.1198,-0.62621,0.69535,-0.69226,-0.65782,0.70269,-0.33454,-0.44132,0.22671,-0.653,0.27526,0.27912,0.28166,-0.25024,-0.77909,-507.8453,73.0898,17.3432,124.627,134.2476,23.817,-57.9699,142.0198,20.0087,148.9295,165.8598,33.6184,-68.302,28.2336,28.2499,27.7929,147.1084,169.6489,4.21,1.93,4.37,2.97,1.5,2.03,1656.13,554.6147,1723.87,"	487.1603",2576.22,"	379.236",5.46,1.7,5.3,6.37,1.56,7.34,2,1,1,34.4,4.4,45.1,57.4,30.6,538.59,517.15,46.177,1.73,-0.24249,-0.10002,0.0049,1.28323,0.50214,156.95,19.206,1.5,0.34205,2.2959,-0.20929,-0.05014,1.30782,1.334347549,1.083679344,2.144525985,73.8488,54.407,25.1928,47.427,-0.40144,-0.24685,0.26958,221.95,208.18,0,1.31,4.46899,0.40537,0.37165,7.3745,-0.19401,-0.08712,96.61,66.09,40.081,1.22,0.7618,4.46899,0.40537,0.37165,-0.19401,-0.08712,7.3745,96.61,66.09,40.081,1.22,15,2,2,48,60,4.7113,92
0.12643,144.8063544,10.02919616,171.9545406,131.3099258,12.57496832,16.54575578,80.29425792,112.9775266,91.42592813,114.701781,112.887433,116.358678,112.8658352,121.5729217,119.012381,123.7757069,60.8563894,111.8377314,91.93023108,1.845744414,2.31698285,2.017644806,1.355950886,1.245125558,1.137854206,1.56441259,1.098283442,1.525712624,1.096192534,-0.2123,-0.08601,11.7302,0.56227,-0.50695,0.69305,-0.1198,-0.62621,0.69535,-0.69226,-0.65782,0.70269,-0.33454,-0.44132,0.22671,-0.653,0.27526,0.27912,0.28166,-0.25024,-0.77909,-507.8453,73.0898,17.3432,124.627,134.2476,23.817,-57.9699,142.0198,20.0087,148.9295,165.8598,33.6184,-68.302,28.2336,28.2499,27.7929,147.1084,169.6489,4.21,1.93,4.37,2.97,1.5,2.03,1656.13,554.6147,1723.87,"	487.1603",2576.22,"	379.236",5.46,1.7,5.3,6.37,1.56,7.34,2,1,1,34.4,4.4,45.1,57.4,30.6,538.59,517.15,46.177,1.73,-0.24249,-0.10002,0.0049,1.28323,0.50214,156.95,19.206,1.5,0.34205,3.1101,-0.22227,-0.04437,2.56208,1.335353752,1.082821053,2.139169685,74.0657,62.3814,24.8718,47.5113,-0.39832,-0.25205,0.26551,181.51,161.6,0,1.27,4.46899,0.40537,0.37165,7.3745,-0.19401,-0.08712,96.61,66.09,40.081,1.22,0.7618,4.46899,0.40537,0.37165,-0.19401,-0.08712,7.3745,96.61,66.09,40.081,1.22,15,2,2,48,60,4.7113,92
0.12643,144.8063544,10.02919616,171.9545406,131.3099258,12.57496832,16.54575578,80.29425792,112.9775266,91.42592813,114.701781,112.887433,116.358678,112.8658352,121.5729217,119.012381,123.7757069,60.8563894,111.8377314,91.93023108,1.845744414,2.31698285,2.017644806,1.355950886,1.245125558,1.137854206,1.56441259,1.098283442,1.525712624,1.096192534,-0.2123,-0.08601,11.7302,0.56227,-0.50695,0.69305,-0.1198,-0.62621,0.69535,-0.69226,-0.65782,0.70269,-0.33454,-0.44132,0.22671,-0.653,0.27526,0.27912,0.28166,-0.25024,-0.77909,-507.8453,73.0898,17.3432,124.627,134.2476,23.817,-57.9699,142.0198,20.0087,148.9295,165.8598,33.6184,-68.302,28.2336,28.2499,27.7929,147.1084,169.6489,4.21,1.93,4.37,2.97,1.5,2.03,1656.13,554.6147,1723.87,"	487.1603",2576.22,"	379.236",5.46,1.7,5.3,6.37,1.56,7.34,2,1,1,34.4,4.4,45.1,57.4,30.6,538.59,517.15,46.177,1.73,-0.24249,-0.10002,0.0049,1.28323,0.50214,156.95,19.206,1.5,0.34205,3.6697,-0.23063,-0.04495,0.92693,1.334422153,1.083769371,2.137922084,70.8227,55.6536,25.1989,47.2063,-0.39713,-0.24719,0.27076,196.19,175.51,0,1.29,4.46899,0.40537,0.37165,7.3745,-0.19401,-0.08712,96.61,66.09,40.081,1.22,0.7618,4.46899,0.40537,0.37165,-0.19401,-0.08712,7.3745,96.61,66.09,40.081,1.22,15,2,2,48,60,4.7113,92
0.12643,144.8063544,10.02919616,171.9545406,131.3099258,12.57496832,16.54575578,80.29425792,112.9775266,91.42592813,114.701781,112.887433,116.358678,112.8658352,121.5729217,119.012381,123.7757069,60.8563894,111.8377314,91.93023108,1.845744414,2.31698285,2.017644806,1.355950886,1.245125558,1.137854206,1.56441259,1.098283442,1.525712624,1.096192534,-0.2123,-0.08601,11.7302,0.56227,-0.50695,0.69305,-0.1198,-0.62621,0.69535,-0.69226,-0.65782,0.70269,-0.33454,-0.44132,0.22671,-0.653,0.27526,0.27912,0.28166,-0.25024,-0.77909,-507.8453,73.0898,17.3432,124.627,134.2476,23.817,-57.9699,142.0198,20.0087,148.9295,165.8598,33.6184,-68.302,28.2336,28.2499,27.7929,147.1084,169.6489,4.21,1.93,4.37,2.97,1.5,2.03,1656.13,554.6147,1723.87,"	487.1603",2576.22,"	379.236",5.46,1.7,5.3,6.37,1.56,7.34,2,1,1,34.4,4.4,45.1,57.4,30.6,538.59,517.15,46.177,1.73,-0.24249,-0.10002,0.0049,1.28323,0.50214,156.95,19.206,1.5,0.34205,4.0382,-0.23097,-0.04758,0.91102,1.334352318,1.083639661,2.137735325,70.5263,56.3848,25.0606,47.1685,-0.3948,-0.25638,0.27,208.38,188.46,0,1.31,4.46899,0.40537,0.37165,7.3745,-0.19401,-0.08712,96.61,66.09,40.081,1.22,0.7618,4.46899,0.40537,0.37165,-0.19401,-0.08712,7.3745,96.61,66.09,40.081,1.22,15,2,2,48,60,4.7113,94
0.12643,144.8063544,10.02919616,171.9545406,131.3099258,12.57496832,16.54575578,80.29425792,112.9775266,91.42592813,114.701781,112.887433,116.358678,112.8658352,121.5729217,119.012381,123.7757069,60.8563894,111.8377314,91.93023108,1.845744414,2.31698285,2.017644806,1.355950886,1.245125558,1.137854206,1.56441259,1.098283442,1.525712624,1.096192534,-0.2123,-0.08601,11.7302,0.56227,-0.50695,0.69305,-0.1198,-0.62621,0.69535,-0.69226,-0.65782,0.70269,-0.33454,-0.44132,0.22671,-0.653,0.27526,0.27912,0.28166,-0.25024,-0.77909,-507.8453,73.0898,17.3432,124.627,134.2476,23.817,-57.9699,142.0198,20.0087,148.9295,165.8598,33.6184,-68.302,28.2336,28.2499,27.7929,147.1084,169.6489,4.21,1.93,4.37,2.97,1.5,2.03,1656.13,554.6147,1723.87,"	487.1603",2576.22,"	379.236",5.46,1.7,5.3,6.37,1.56,7.34,2,1,1,34.4,4.4,45.1,57.4,30.6,538.59,517.15,46.177,1.73,-0.24249,-0.10002,0.0049,1.28323,0.50214,156.95,19.206,1.5,0.34205,1.2919,-0.22616,-0.05263,2.25133,1.335439393,1.083181975,2.136055459,115.2485,147.5757,30.5842,64.4824,-0.39491,-0.25491,0.26681,202.32,180.08,0,1.31,4.46899,0.40537,0.37165,7.3745,-0.19401,-0.08712,96.61,66.09,40.081,1.22,0.7618,4.46899,0.40537,0.37165,-0.19401,-0.08712,7.3745,96.61,66.09,40.081,1.22,15,2,2,48,60,4.7113,94
0.12643,144.8063544,10.02919616,171.9545406,131.3099258,12.57496832,16.54575578,80.29425792,112.9775266,91.42592813,114.701781,112.887433,116.358678,112.8658352,121.5729217,119.012381,123.7757069,60.8563894,111.8377314,91.93023108,1.845744414,2.31698285,2.017644806,1.355950886,1.245125558,1.137854206,1.56441259,1.098283442,1.525712624,1.096192534,-0.2123,-0.08601,11.7302,0.56227,-0.50695,0.69305,-0.1198,-0.62621,0.69535,-0.69226,-0.65782,0.70269,-0.33454,-0.44132,0.22671,-0.653,0.27526,0.27912,0.28166,-0.25024,-0.77909,-507.8453,73.0898,17.3432,124.627,134.2476,23.817,-57.9699,142.0198,20.0087,148.9295,165.8598,33.6184,-68.302,28.2336,28.2499,27.7929,147.1084,169.6489,4.21,1.93,4.37,2.97,1.5,2.03,1656.13,554.6147,1723.87,"	487.1603",2576.22,"	379.236",5.46,1.7,5.3,6.37,1.56,7.34,2,1,1,34.4,4.4,45.1,57.4,30.6,538.59,517.15,46.177,1.73,-0.24249,-0.10002,0.0049,1.28323,0.50214,156.95,19.206,1.5,0.34205,2.1074,-0.22034,-0.03632,2.47927,1.335107992,1.083553026,2.144327971,75.2208,54.5243,25.2946,47.6743,-0.40259,-0.24416,0.26796,194.7,174.95,0,1.29,4.46899,0.40537,0.37165,7.3745,-0.19401,-0.08712,96.61,66.09,40.081,1.22,0.7618,4.46899,0.40537,0.37165,-0.19401,-0.08712,7.3745,96.61,66.09,40.081,1.22,15,2,2,48,60,4.7113,92
0.12643,144.8063544,10.02919616,171.9545406,131.3099258,12.57496832,16.54575578,80.29425792,112.9775266,91.42592813,114.701781,112.887433,116.358678,112.8658352,121.5729217,119.012381,123.7757069,60.8563894,111.8377314,91.93023108,1.845744414,2.31698285,2.017644806,1.355950886,1.245125558,1.137854206,1.56441259,1.098283442,1.525712624,1.096192534,-0.2123,-0.08601,11.7302,0.56227,-0.50695,0.69305,-0.1198,-0.62621,0.69535,-0.69226,-0.65782,0.70269,-0.33454,-0.44132,0.22671,-0.653,0.27526,0.27912,0.28166,-0.25024,-0.77909,-507.8453,73.0898,17.3432,124.627,134.2476,23.817,-57.9699,142.0198,20.0087,148.9295,165.8598,33.6184,-68.302,28.2336,28.2499,27.7929,147.1084,169.6489,4.21,1.93,4.37,2.97,1.5,2.03,1656.13,554.6147,1723.87,"	487.1603",2576.22,"	379.236",5.46,1.7,5.3,6.37,1.56,7.34,2,1,1,34.4,4.4,45.1,57.4,30.6,538.59,517.15,46.177,1.73,-0.24249,-0.10002,0.0049,1.28323,0.50214,156.95,19.206,1.5,0.34205,2.3697,-0.22171,-0.03097,2.9037,1.339639668,3.631473144,1.08228469,77.0417,47.3678,71.4853,25.5099,-0.40938,-0.03054,-0.2311,193.38,174.93,0,1.28,4.46899,0.40537,0.37165,7.3745,-0.19401,-0.08712,96.61,66.09,40.081,1.22,0.7618,4.46899,0.40537,0.37165,-0.19401,-0.08712,7.3745,96.61,66.09,40.081,1.22,15,2,2,48,60,4.7113,92
