luciancahil/rarf/cs5c01051_si_002/repo/data/DD_out-of-bag/Set-2.csv
Rx-MLS,DA3-4-5-6-MLS,DA4-5-1-2-MLS,DA4-5-6-7-MLS,DA9-10-11-14-MLS,DA9-10-11-12-MLS,DA1-5-6-7-MLS,DA1-12-11-14-MLS,DA1-5-4-20-MLS,DA6-5-4-20-MLS,BA1-2-3-MLS,BA3-4-20-MLS,BA1-5-4-MLS,BA5-4-20-MLS,BA5-6-7-MLS,BA7-6-22-MLS,BA10-11-12-MLS,BA10-11-14-MLS,BA1-12-11-MLS,BA5-1-12-MLS,NB1-12-MLS,NB7-12-MLS,BL1-2-MLS,BL5-6-MLS,BL6-7-MLS,BL11-12-MLS,BL4-20-MLS,BL4-19-MLS,BL6-22-MLS,BL10-15-MLS,HOMO-MLS,LUMO-MLS,DM-MLS,q1-MLS,q2-MLS,q3-MLS,q4-MLS,q5-MLS,q6-MLS,q7-MLS,q8-MLS,q9-MLS,q10-MLS,q11-MLS,q12-MLS,q13-MLS,q14-MLS,q15-MLS,q19-MLS,q20-MLS,q22-MLS,NMR1-MLS,NMR2-MLS,NMR3-MLS,NMR4-MLS,NMR5-MLS,NMR6-MLS,NMR7-MLS,NMR8-MLS,NMR9-MLS,NMR10-MLS,NMR11-MLS,NMR12-MLS,NMR13-MLS,NMR14-MLS,NMR15-MLS,NMR19-MLS,NMR20-MLS,NMR22-MLS,L-R14-MLS,B1-R14-MLS,B5-R14-MLS,L-R15-MLS,B1-R15-MLS,B5-R15-MLS,VF(C6=O7)-MLS,VI(C6=O7)-MLS,VF(C9=O13)-MLS,VI(C9=O13)-MLS,VF(C11-H12)-MLS,VI(C11-H12)-MLS,L-Y-MLS,B1-Y-MLS,B5-Y-MLS,L-X-MLS,B1-X-MLS,B5-X-MLS,L-R16-MLS,B1-R16-MLS,B5-R16-MLS,BV-MLS,BV-SW-MLS,BV-NW-MLS,BV-NE-MLS,BV-SE-MLS,Area-MLS,Volume-MLS,PSA-MLS,Ovality-MLS,HOMO-MC,LUMO-MC,DM-MC,Rx-MC,Ry-MC,Volume-MC,PSA-MC,Ovality-MC,q(Pd)-MC,DM-CP,HOMO-CP,LUMO-CP,Rx-CP,BL1-2-CP,BL1-6-CP,BL1-7-CP,NMR1-CP,NMR2-CP,NMR6-CP,NMR7-CP,q1-CP,q2-CP,q6-CP,Area-CP,Volume-CP,PSA-CP,Ovality-CP,Rx-B,Ry-B,Rz-B,DM-B,HOMO-B,LUMO-B,Area-B,Volume-B,PSA-B,Ovality-B,q(Ag)-A,Rx-A,Ry-A,Rz-A,HOMO-A,LUMO-A,DM-A,Area-A,Volume-A,PSA-A,Ovality-A,Eqv(L),Eqv(B),Eqv(A),Time(H)   ,T (?C),DC(Solvent),%ee
0.10853,118.7318751,25.5391682,165.4385748,58.03139,37.3276039,16.22973033,42.74562706,91.96690937,117.887725,112.46455,112.7545891,113.1551588,113.9143028,121.0440265,119.46426,120.7709989,110.65377,122.425388,89.25483006,1.823704524,2.385066702,2.049343718,1.359770035,1.241953341,1.134859793,1.577023038,1.095191079,1.524353403,1.098680604,-0.21929,-0.09484,10.9383,0.56114,-0.52581,0.69361,-0.12057,-0.62468,0.69672,-0.66691,-0.68054,0.70555,-0.34195,-0.63437,0.20466,-0.64231,0.25091,0.2677,0.27898,-0.04788,-0.77758,-528.357,74.5407,16.0949,122.8474,134.4192,22.3764,-80.8969,156.412,19.4992,154.1549,168.4773,35.214,-75.2943,30.2822,28.2511,28.7249,152.604,167.4722,4.13,2.76,3.19,2.97,1.5,2.03,1672.33,397.0936,1736.69,462.0261,2637.19,326.9752,5.44,1.67,5.11,6.37,1.56,7.34,2,1,1,40.3,27.8,50.4,51.2,31.8,566.19,553.97,46.942,1.74,-0.23636,-0.0953,0.0002,1.28712,0.50274,156.91,19.117,1.5,0.33863,2.1645,-0.2381,-0.03507,5.6598,1.394204747,1.393896696,2.162235546,57.4193,61.4749,61.426,45.6754,-0.19474,-0.25161,-0.25165,142.67,124.71,0,1.18,3.86457,1.15122,1.05423,8.6716,-0.25928,-0.04069,111.23,81.85,27.797,1.22,0.73454,4.51342,0.4129,0.37829,-0.19461,-0.09796,6.668,96.06,65.89,39.914,1.22,20,2,2,72,60,4.7113,96
0.10853,118.7318751,25.5391682,165.4385748,58.03139,37.3276039,16.22973033,42.74562706,91.96690937,117.887725,112.46455,112.7545891,113.1551588,113.9143028,121.0440265,119.46426,120.7709989,110.65377,122.425388,89.25483006,1.823704524,2.385066702,2.049343718,1.359770035,1.241953341,1.134859793,1.577023038,1.095191079,1.524353403,1.098680604,-0.21929,-0.09484,10.9383,0.56114,-0.52581,0.69361,-0.12057,-0.62468,0.69672,-0.66691,-0.68054,0.70555,-0.34195,-0.63437,0.20466,-0.64231,0.25091,0.2677,0.27898,-0.04788,-0.77758,-528.357,74.5407,16.0949,122.8474,134.4192,22.3764,-80.8969,156.412,19.4992,154.1549,168.4773,35.214,-75.2943,30.2822,28.2511,28.7249,152.604,167.4722,4.13,2.76,3.19,2.97,1.5,2.03,1672.33,397.0936,1736.69,462.0261,2637.19,326.9752,5.44,1.67,5.11,6.37,1.56,7.34,2,1,1,40.3,27.8,50.4,51.2,31.8,566.19,553.97,46.942,1.74,-0.23636,-0.0953,0.0002,1.28712,0.50274,156.91,19.117,1.5,0.33863,2.6988,-0.23108,-0.03321,5.50443,1.392075857,1.39446225,2.16156297,61.1846,61.7208,61.7185,46.0198,-0.20209,-0.24592,-0.24609,162.65,142.99,0,1.23,3.86457,1.15122,1.05423,8.6716,-0.25928,-0.04069,111.23,81.85,27.797,1.22,0.73454,4.51342,0.4129,0.37829,-0.19461,-0.09796,6.668,96.06,65.89,39.914,1.22,20,2,2,72,60,4.7113,96
0.10853,118.7318751,25.5391682,165.4385748,58.03139,37.3276039,16.22973033,42.74562706,91.96690937,117.887725,112.46455,112.7545891,113.1551588,113.9143028,121.0440265,119.46426,120.7709989,110.65377,122.425388,89.25483006,1.823704524,2.385066702,2.049343718,1.359770035,1.241953341,1.134859793,1.577023038,1.095191079,1.524353403,1.098680604,-0.21929,-0.09484,10.9383,0.56114,-0.52581,0.69361,-0.12057,-0.62468,0.69672,-0.66691,-0.68054,0.70555,-0.34195,-0.63437,0.20466,-0.64231,0.25091,0.2677,0.27898,-0.04788,-0.77758,-528.357,74.5407,16.0949,122.8474,134.4192,22.3764,-80.8969,156.412,19.4992,154.1549,168.4773,35.214,-75.2943,30.2822,28.2511,28.7249,152.604,167.4722,4.13,2.76,3.19,2.97,1.5,2.03,1672.33,397.0936,1736.69,462.0261,2637.19,326.9752,5.44,1.67,5.11,6.37,1.56,7.34,2,1,1,40.3,27.8,50.4,51.2,31.8,566.19,553.97,46.942,1.74,-0.23636,-0.0953,0.0002,1.28712,0.50274,156.91,19.117,1.5,0.33863,3.3224,-0.21675,-0.03208,4.77611,1.390492089,1.397078575,2.159232968,69.0897,60.7725,60.9247,46.2997,-0.22387,-0.23377,-0.23895,172.46,151.82,6.932,1.25,3.86457,1.15122,1.05423,8.6716,-0.25928,-0.04069,111.23,81.85,27.797,1.22,0.73454,4.51342,0.4129,0.37829,-0.19461,-0.09796,6.668,96.06,65.89,39.914,1.22,20,2,2,72,60,4.7113,92
0.10853,118.7318751,25.5391682,165.4385748,58.03139,37.3276039,16.22973033,42.74562706,91.96690937,117.887725,112.46455,112.7545891,113.1551588,113.9143028,121.0440265,119.46426,120.7709989,110.65377,122.425388,89.25483006,1.823704524,2.385066702,2.049343718,1.359770035,1.241953341,1.134859793,1.577023038,1.095191079,1.524353403,1.098680604,-0.21929,-0.09484,10.9383,0.56114,-0.52581,0.69361,-0.12057,-0.62468,0.69672,-0.66691,-0.68054,0.70555,-0.34195,-0.63437,0.20466,-0.64231,0.25091,0.2677,0.27898,-0.04788,-0.77758,-528.357,74.5407,16.0949,122.8474,134.4192,22.3764,-80.8969,156.412,19.4992,154.1549,168.4773,35.214,-75.2943,30.2822,28.2511,28.7249,152.604,167.4722,4.13,2.76,3.19,2.97,1.5,2.03,1672.33,397.0936,1736.69,462.0261,2637.19,326.9752,5.44,1.67,5.11,6.37,1.56,7.34,2,1,1,40.3,27.8,50.4,51.2,31.8,566.19,553.97,46.942,1.74,-0.23636,-0.0953,0.0002,1.28712,0.50274,156.91,19.117,1.5,0.33863,0.3455,-0.23831,-0.03958,2.61505,1.392669911,1.394944768,2.154406471,62.8635,60.1502,59.7348,45.5464,-0.21315,-0.22979,-0.23306,187.67,165.36,6.522,1.29,3.86457,1.15122,1.05423,8.6716,-0.25928,-0.04069,111.23,81.85,27.797,1.22,0.73454,4.51342,0.4129,0.37829,-0.19461,-0.09796,6.668,96.06,65.89,39.914,1.22,20,2,2,72,60,4.7113,94
0.10853,118.7318751,25.5391682,165.4385748,58.03139,37.3276039,16.22973033,42.74562706,91.96690937,117.887725,112.46455,112.7545891,113.1551588,113.9143028,121.0440265,119.46426,120.7709989,110.65377,122.425388,89.25483006,1.823704524,2.385066702,2.049343718,1.359770035,1.241953341,1.134859793,1.577023038,1.095191079,1.524353403,1.098680604,-0.21929,-0.09484,10.9383,0.56114,-0.52581,0.69361,-0.12057,-0.62468,0.69672,-0.66691,-0.68054,0.70555,-0.34195,-0.63437,0.20466,-0.64231,0.25091,0.2677,0.27898,-0.04788,-0.77758,-528.357,74.5407,16.0949,122.8474,134.4192,22.3764,-80.8969,156.412,19.4992,154.1549,168.4773,35.214,-75.2943,30.2822,28.2511,28.7249,152.604,167.4722,4.13,2.76,3.19,2.97,1.5,2.03,1672.33,397.0936,1736.69,462.0261,2637.19,326.9752,5.44,1.67,5.11,6.37,1.56,7.34,2,1,1,40.3,27.8,50.4,51.2,31.8,566.19,553.97,46.942,1.74,-0.23636,-0.0953,0.0002,1.28712,0.50274,156.91,19.117,1.5,0.33863,2.3644,-0.22314,-0.03496,2.84891,1.393759234,1.393695077,2.158816136,58.4494,60.981,60.9532,45.8142,-0.19862,-0.24543,-0.24541,222.8,208.35,0,1.31,3.86457,1.15122,1.05423,8.6716,-0.25928,-0.04069,111.23,81.85,27.797,1.22,0.73454,4.51342,0.4129,0.37829,-0.19461,-0.09796,6.668,96.06,65.89,39.914,1.22,20,2,2,72,60,4.7113,86
0.10853,118.7318751,25.5391682,165.4385748,58.03139,37.3276039,16.22973033,42.74562706,91.96690937,117.887725,112.46455,112.7545891,113.1551588,113.9143028,121.0440265,119.46426,120.7709989,110.65377,122.425388,89.25483006,1.823704524,2.385066702,2.049343718,1.359770035,1.241953341,1.134859793,1.577023038,1.095191079,1.524353403,1.098680604,-0.21929,-0.09484,10.9383,0.56114,-0.52581,0.69361,-0.12057,-0.62468,0.69672,-0.66691,-0.68054,0.70555,-0.34195,-0.63437,0.20466,-0.64231,0.25091,0.2677,0.27898,-0.04788,-0.77758,-528.357,74.5407,16.0949,122.8474,134.4192,22.3764,-80.8969,156.412,19.4992,154.1549,168.4773,35.214,-75.2943,30.2822,28.2511,28.7249,152.604,167.4722,4.13,2.76,3.19,2.97,1.5,2.03,1672.33,397.0936,1736.69,462.0261,2637.19,326.9752,5.44,1.67,5.11,6.37,1.56,7.34,2,1,1,40.3,27.8,50.4,51.2,31.8,566.19,553.97,46.942,1.74,-0.23636,-0.0953,0.0002,1.28712,0.50274,156.91,19.117,1.5,0.33863,2.5469,-0.22466,-0.03448,1.27735,1.394739793,1.39391945,2.158717117,66.6233,60.3273,60.4724,46.0468,-0.21758,-0.23888,-0.23734,261.17,237.23,6.425,1.41,3.86457,1.15122,1.05423,8.6716,-0.25928,-0.04069,111.23,81.85,27.797,1.22,0.73454,4.51342,0.4129,0.37829,-0.19461,-0.09796,6.668,96.06,65.89,39.914,1.22,20,2,2,72,60,4.7113,88
0.10853,118.7318751,25.5391682,165.4385748,58.03139,37.3276039,16.22973033,42.74562706,91.96690937,117.887725,112.46455,112.7545891,113.1551588,113.9143028,121.0440265,119.46426,120.7709989,110.65377,122.425388,89.25483006,1.823704524,2.385066702,2.049343718,1.359770035,1.241953341,1.134859793,1.577023038,1.095191079,1.524353403,1.098680604,-0.21929,-0.09484,10.9383,0.56114,-0.52581,0.69361,-0.12057,-0.62468,0.69672,-0.66691,-0.68054,0.70555,-0.34195,-0.63437,0.20466,-0.64231,0.25091,0.2677,0.27898,-0.04788,-0.77758,-528.357,74.5407,16.0949,122.8474,134.4192,22.3764,-80.8969,156.412,19.4992,154.1549,168.4773,35.214,-75.2943,30.2822,28.2511,28.7249,152.604,167.4722,4.13,2.76,3.19,2.97,1.5,2.03,1672.33,397.0936,1736.69,462.0261,2637.19,326.9752,5.44,1.67,5.11,6.37,1.56,7.34,2,1,1,40.3,27.8,50.4,51.2,31.8,566.19,553.97,46.942,1.74,-0.23636,-0.0953,0.0002,1.28712,0.50274,156.91,19.117,1.5,0.33863,1.9363,-0.23543,-0.03496,1.05419,1.392427097,1.395605824,2.160353757,58.5465,61.8324,60.9141,45.7614,-0.19721,-0.24519,-0.24462,283.81,255.95,6.508,1.46,3.86457,1.15122,1.05423,8.6716,-0.25928,-0.04069,111.23,81.85,27.797,1.22,0.73454,4.51342,0.4129,0.37829,-0.19461,-0.09796,6.668,96.06,65.89,39.914,1.22,20,2,2,72,60,4.7113,92
0.10853,118.7318751,25.5391682,165.4385748,58.03139,37.3276039,16.22973033,42.74562706,91.96690937,117.887725,112.46455,112.7545891,113.1551588,113.9143028,121.0440265,119.46426,120.7709989,110.65377,122.425388,89.25483006,1.823704524,2.385066702,2.049343718,1.359770035,1.241953341,1.134859793,1.577023038,1.095191079,1.524353403,1.098680604,-0.21929,-0.09484,10.9383,0.56114,-0.52581,0.69361,-0.12057,-0.62468,0.69672,-0.66691,-0.68054,0.70555,-0.34195,-0.63437,0.20466,-0.64231,0.25091,0.2677,0.27898,-0.04788,-0.77758,-528.357,74.5407,16.0949,122.8474,134.4192,22.3764,-80.8969,156.412,19.4992,154.1549,168.4773,35.214,-75.2943,30.2822,28.2511,28.7249,152.604,167.4722,4.13,2.76,3.19,2.97,1.5,2.03,1672.33,397.0936,1736.69,462.0261,2637.19,326.9752,5.44,1.67,5.11,6.37,1.56,7.34,2,1,1,40.3,27.8,50.4,51.2,31.8,566.19,553.97,46.942,1.74,-0.23636,-0.0953,0.0002,1.28712,0.50274,156.91,19.117,1.5,0.33863,1.9452,-0.23551,-0.03511,0.97377,1.392973405,1.394976514,2.160130554,59.0624,61.4278,60.9661,45.7926,-0.19922,-0.24531,-0.24406,274.7,254.69,6.346,1.41,3.86457,1.15122,1.05423,8.6716,-0.25928,-0.04069,111.23,81.85,27.797,1.22,0.73454,4.51342,0.4129,0.37829,-0.19461,-0.09796,6.668,96.06,65.89,39.914,1.22,20,2,2,72,60,4.7113,88
0.10853,118.7318751,25.5391682,165.4385748,58.03139,37.3276039,16.22973033,42.74562706,91.96690937,117.887725,112.46455,112.7545891,113.1551588,113.9143028,121.0440265,119.46426,120.7709989,110.65377,122.425388,89.25483006,1.823704524,2.385066702,2.049343718,1.359770035,1.241953341,1.134859793,1.577023038,1.095191079,1.524353403,1.098680604,-0.21929,-0.09484,10.9383,0.56114,-0.52581,0.69361,-0.12057,-0.62468,0.69672,-0.66691,-0.68054,0.70555,-0.34195,-0.63437,0.20466,-0.64231,0.25091,0.2677,0.27898,-0.04788,-0.77758,-528.357,74.5407,16.0949,122.8474,134.4192,22.3764,-80.8969,156.412,19.4992,154.1549,168.4773,35.214,-75.2943,30.2822,28.2511,28.7249,152.604,167.4722,4.13,2.76,3.19,2.97,1.5,2.03,1672.33,397.0936,1736.69,462.0261,2637.19,326.9752,5.44,1.67,5.11,6.37,1.56,7.34,2,1,1,40.3,27.8,50.4,51.2,31.8,566.19,553.97,46.942,1.74,-0.23636,-0.0953,0.0002,1.28712,0.50274,156.91,19.117,1.5,0.33863,0.4985,-0.23168,-0.03667,0.24495,1.393905669,1.394983226,2.158830315,59.0973,60.5773,61.4601,45.7295,-0.19762,-0.24687,-0.24532,364.56,343.4,17.317,1.54,3.86457,1.15122,1.05423,8.6716,-0.25928,-0.04069,111.23,81.85,27.797,1.22,0.73454,4.51342,0.4129,0.37829,-0.19461,-0.09796,6.668,96.06,65.89,39.914,1.22,20,2,2,72,60,4.7113,88
0.10853,118.7318751,25.5391682,165.4385748,58.03139,37.3276039,16.22973033,42.74562706,91.96690937,117.887725,112.46455,112.7545891,113.1551588,113.9143028,121.0440265,119.46426,120.7709989,110.65377,122.425388,89.25483006,1.823704524,2.385066702,2.049343718,1.359770035,1.241953341,1.134859793,1.577023038,1.095191079,1.524353403,1.098680604,-0.21929,-0.09484,10.9383,0.56114,-0.52581,0.69361,-0.12057,-0.62468,0.69672,-0.66691,-0.68054,0.70555,-0.34195,-0.63437,0.20466,-0.64231,0.25091,0.2677,0.27898,-0.04788,-0.77758,-528.357,74.5407,16.0949,122.8474,134.4192,22.3764,-80.8969,156.412,19.4992,154.1549,168.4773,35.214,-75.2943,30.2822,28.2511,28.7249,152.604,167.4722,4.13,2.76,3.19,2.97,1.5,2.03,1672.33,397.0936,1736.69,462.0261,2637.19,326.9752,5.44,1.67,5.11,6.37,1.56,7.34,2,1,1,40.3,27.8,50.4,51.2,31.8,566.19,553.97,46.942,1.74,-0.23636,-0.0953,0.0002,1.28712,0.50274,156.91,19.117,1.5,0.33863,0.4839,-0.23663,-0.03818,5.63446,1.395278938,1.394956458,2.156927051,64.4985,60.0201,59.972,45.6804,-0.21691,-0.23554,-0.23559,148.37,129.29,0,1.2,3.86457,1.15122,1.05423,8.6716,-0.25928,-0.04069,111.23,81.85,27.797,1.22,0.73454,4.51342,0.4129,0.37829,-0.19461,-0.09796,6.668,96.06,65.89,39.914,1.22,20,2,2,72,60,4.7113,92
0.10853,118.7318751,25.5391682,165.4385748,58.03139,37.3276039,16.22973033,42.74562706,91.96690937,117.887725,112.46455,112.7545891,113.1551588,113.9143028,121.0440265,119.46426,120.7709989,110.65377,122.425388,89.25483006,1.823704524,2.385066702,2.049343718,1.359770035,1.241953341,1.134859793,1.577023038,1.095191079,1.524353403,1.098680604,-0.21929,-0.09484,10.9383,0.56114,-0.52581,0.69361,-0.12057,-0.62468,0.69672,-0.66691,-0.68054,0.70555,-0.34195,-0.63437,0.20466,-0.64231,0.25091,0.2677,0.27898,-0.04788,-0.77758,-528.357,74.5407,16.0949,122.8474,134.4192,22.3764,-80.8969,156.412,19.4992,154.1549,168.4773,35.214,-75.2943,30.2822,28.2511,28.7249,152.604,167.4722,4.13,2.76,3.19,2.97,1.5,2.03,1672.33,397.0936,1736.69,462.0261,2637.19,326.9752,5.44,1.67,5.11,6.37,1.56,7.34,2,1,1,40.3,27.8,50.4,51.2,31.8,566.19,553.97,46.942,1.74,-0.23636,-0.0953,0.0002,1.28712,0.50274,156.91,19.117,1.5,0.33863,0.2306,-0.23966,-0.04057,5.64082,1.394424462,1.394077189,2.154964949,59.4595,60.5634,60.5235,45.5026,-0.20542,-0.23581,-0.23587,158.36,138.39,0,1.22,3.86457,1.15122,1.05423,8.6716,-0.25928,-0.04069,111.23,81.85,27.797,1.22,0.73454,4.51342,0.4129,0.37829,-0.19461,-0.09796,6.668,96.06,65.89,39.914,1.22,20,2,2,72,60,4.7113,94
0.10853,118.7318751,25.5391682,165.4385748,58.03139,37.3276039,16.22973033,42.74562706,91.96690937,117.887725,112.46455,112.7545891,113.1551588,113.9143028,121.0440265,119.46426,120.7709989,110.65377,122.425388,89.25483006,1.823704524,2.385066702,2.049343718,1.359770035,1.241953341,1.134859793,1.577023038,1.095191079,1.524353403,1.098680604,-0.21929,-0.09484,10.9383,0.56114,-0.52581,0.69361,-0.12057,-0.62468,0.69672,-0.66691,-0.68054,0.70555,-0.34195,-0.63437,0.20466,-0.64231,0.25091,0.2677,0.27898,-0.04788,-0.77758,-528.357,74.5407,16.0949,122.8474,134.4192,22.3764,-80.8969,156.412,19.4992,154.1549,168.4773,35.214,-75.2943,30.2822,28.2511,28.7249,152.604,167.4722,4.13,2.76,3.19,2.97,1.5,2.03,1672.33,397.0936,1736.69,462.0261,2637.19,326.9752,5.44,1.67,5.11,6.37,1.56,7.34,2,1,1,40.3,27.8,50.4,51.2,31.8,566.19,553.97,46.942,1.74,-0.23636,-0.0953,0.0002,1.28712,0.50274,156.91,19.117,1.5,0.33863,0.5989,-0.2415,-0.04205,5.63357,1.394164553,1.393841954,2.154351563,58.3889,60.2733,60.2217,45.465,-0.20409,-0.2336,-0.23366,163.45,143.21,0,1.23,3.86457,1.15122,1.05423,8.6716,-0.25928,-0.04069,111.23,81.85,27.797,1.22,0.73454,4.51342,0.4129,0.37829,-0.19461,-0.09796,6.668,96.06,65.89,39.914,1.22,20,2,2,72,60,4.7113,92
0.10853,118.7318751,25.5391682,165.4385748,58.03139,37.3276039,16.22973033,42.74562706,91.96690937,117.887725,112.46455,112.7545891,113.1551588,113.9143028,121.0440265,119.46426,120.7709989,110.65377,122.425388,89.25483006,1.823704524,2.385066702,2.049343718,1.359770035,1.241953341,1.134859793,1.577023038,1.095191079,1.524353403,1.098680604,-0.21929,-0.09484,10.9383,0.56114,-0.52581,0.69361,-0.12057,-0.62468,0.69672,-0.66691,-0.68054,0.70555,-0.34195,-0.63437,0.20466,-0.64231,0.25091,0.2677,0.27898,-0.04788,-0.77758,-528.357,74.5407,16.0949,122.8474,134.4192,22.3764,-80.8969,156.412,19.4992,154.1549,168.4773,35.214,-75.2943,30.2822,28.2511,28.7249,152.604,167.4722,4.13,2.76,3.19,2.97,1.5,2.03,1672.33,397.0936,1736.69,462.0261,2637.19,326.9752,5.44,1.67,5.11,6.37,1.56,7.34,2,1,1,40.3,27.8,50.4,51.2,31.8,566.19,553.97,46.942,1.74,-0.23636,-0.0953,0.0002,1.28712,0.50274,156.91,19.117,1.5,0.33863,1.0155,-0.24942,-0.04203,2.8167,1.393670759,1.396129938,2.154282912,52.9841,61.3256,60.697,45.0905,-0.19066,-0.24187,-0.24165,178.31,156.73,0,1.27,3.86457,1.15122,1.05423,8.6716,-0.25928,-0.04069,111.23,81.85,27.797,1.22,0.73454,4.51342,0.4129,0.37829,-0.19461,-0.09796,6.668,96.06,65.89,39.914,1.22,20,2,2,72,60,4.7113,94
0.10853,118.7318751,25.5391682,165.4385748,58.03139,37.3276039,16.22973033,42.74562706,91.96690937,117.887725,112.46455,112.7545891,113.1551588,113.9143028,121.0440265,119.46426,120.7709989,110.65377,122.425388,89.25483006,1.823704524,2.385066702,2.049343718,1.359770035,1.241953341,1.134859793,1.577023038,1.095191079,1.524353403,1.098680604,-0.21929,-0.09484,10.9383,0.56114,-0.52581,0.69361,-0.12057,-0.62468,0.69672,-0.66691,-0.68054,0.70555,-0.34195,-0.63437,0.20466,-0.64231,0.25091,0.2677,0.27898,-0.04788,-0.77758,-528.357,74.5407,16.0949,122.8474,134.4192,22.3764,-80.8969,156.412,19.4992,154.1549,168.4773,35.214,-75.2943,30.2822,28.2511,28.7249,152.604,167.4722,4.13,2.76,3.19,2.97,1.5,2.03,1672.33,397.0936,1736.69,462.0261,2637.19,326.9752,5.44,1.67,5.11,6.37,1.56,7.34,2,1,1,40.3,27.8,50.4,51.2,31.8,566.19,553.97,46.942,1.74,-0.23636,-0.0953,0.0002,1.28712,0.50274,156.91,19.117,1.5,0.33863,3.5539,-0.25764,-0.09419,3.94756,1.397200973,1.396836465,2.147450613,46.8113,60.2854,60.2171,44.5515,-0.18448,-0.2411,-0.24115,168.15,146.17,38.947,1.25,3.86457,1.15122,1.05423,8.6716,-0.25928,-0.04069,111.23,81.85,27.797,1.22,0.73454,4.51342,0.4129,0.37829,-0.19461,-0.09796,6.668,96.06,65.89,39.914,1.22,20,2,2,72,60,4.7113,96
0.10853,118.7318751,25.5391682,165.4385748,58.03139,37.3276039,16.22973033,42.74562706,91.96690937,117.887725,112.46455,112.7545891,113.1551588,113.9143028,121.0440265,119.46426,120.7709989,110.65377,122.425388,89.25483006,1.823704524,2.385066702,2.049343718,1.359770035,1.241953341,1.134859793,1.577023038,1.095191079,1.524353403,1.098680604,-0.21929,-0.09484,10.9383,0.56114,-0.52581,0.69361,-0.12057,-0.62468,0.69672,-0.66691,-0.68054,0.70555,-0.34195,-0.63437,0.20466,-0.64231,0.25091,0.2677,0.27898,-0.04788,-0.77758,-528.357,74.5407,16.0949,122.8474,134.4192,22.3764,-80.8969,156.412,19.4992,154.1549,168.4773,35.214,-75.2943,30.2822,28.2511,28.7249,152.604,167.4722,4.13,2.76,3.19,2.97,1.5,2.03,1672.33,397.0936,1736.69,462.0261,2637.19,326.9752,5.44,1.67,5.11,6.37,1.56,7.34,2,1,1,40.3,27.8,50.4,51.2,31.8,566.19,553.97,46.942,1.74,-0.23636,-0.0953,0.0002,1.28712,0.50274,156.91,19.117,1.5,0.33863,2.48,-0.23532,-0.03374,3.15051,1.391578171,1.394161296,2.164192019,57.7369,61.0943,64.3038,45.8135,-0.18503,-0.25,-0.26128,162.62,143,0,1.23,3.86457,1.15122,1.05423,8.6716,-0.25928,-0.04069,111.23,81.85,27.797,1.22,0.73454,4.51342,0.4129,0.37829,-0.19461,-0.09796,6.668,96.06,65.89,39.914,1.22,20,2,2,72,60,4.7113,90
0.10853,118.7318751,25.5391682,165.4385748,58.03139,37.3276039,16.22973033,42.74562706,91.96690937,117.887725,112.46455,112.7545891,113.1551588,113.9143028,121.0440265,119.46426,120.7709989,110.65377,122.425388,89.25483006,1.823704524,2.385066702,2.049343718,1.359770035,1.241953341,1.134859793,1.577023038,1.095191079,1.524353403,1.098680604,-0.21929,-0.09484,10.9383,0.56114,-0.52581,0.69361,-0.12057,-0.62468,0.69672,-0.66691,-0.68054,0.70555,-0.34195,-0.63437,0.20466,-0.64231,0.25091,0.2677,0.27898,-0.04788,-0.77758,-528.357,74.5407,16.0949,122.8474,134.4192,22.3764,-80.8969,156.412,19.4992,154.1549,168.4773,35.214,-75.2943,30.2822,28.2511,28.7249,152.604,167.4722,4.13,2.76,3.19,2.97,1.5,2.03,1672.33,397.0936,1736.69,462.0261,2637.19,326.9752,5.44,1.67,5.11,6.37,1.56,7.34,2,1,1,40.3,27.8,50.4,51.2,31.8,566.19,553.97,46.942,1.74,-0.23636,-0.0953,0.0002,1.28712,0.50274,156.91,19.117,1.5,0.33863,3.8105,-0.22435,-0.03393,2.81775,1.387142817,1.396532711,2.16180834,57.7946,72.5308,69.7678,45.6808,-0.18118,-0.29684,-0.28405,172.41,151.83,6.916,1.25,3.86457,1.15122,1.05423,8.6716,-0.25928,-0.04069,111.23,81.85,27.797,1.22,0.73454,4.51342,0.4129,0.37829,-0.19461,-0.09796,6.668,96.06,65.89,39.914,1.22,20,2,2,72,60,4.7113,92
0.10853,118.7318751,25.5391682,165.4385748,58.03139,37.3276039,16.22973033,42.74562706,91.96690937,117.887725,112.46455,112.7545891,113.1551588,113.9143028,121.0440265,119.46426,120.7709989,110.65377,122.425388,89.25483006,1.823704524,2.385066702,2.049343718,1.359770035,1.241953341,1.134859793,1.577023038,1.095191079,1.524353403,1.098680604,-0.21929,-0.09484,10.9383,0.56114,-0.52581,0.69361,-0.12057,-0.62468,0.69672,-0.66691,-0.68054,0.70555,-0.34195,-0.63437,0.20466,-0.64231,0.25091,0.2677,0.27898,-0.04788,-0.77758,-528.357,74.5407,16.0949,122.8474,134.4192,22.3764,-80.8969,156.412,19.4992,154.1549,168.4773,35.214,-75.2943,30.2822,28.2511,28.7249,152.604,167.4722,4.13,2.76,3.19,2.97,1.5,2.03,1672.33,397.0936,1736.69,462.0261,2637.19,326.9752,5.44,1.67,5.11,6.37,1.56,7.34,2,1,1,40.3,27.8,50.4,51.2,31.8,566.19,553.97,46.942,1.74,-0.23636,-0.0953,0.0002,1.28712,0.50274,156.91,19.117,1.5,0.33863,1.7798,-0.24244,-0.04012,3.2422,1.39370174,1.394688492,2.156339582,57.3944,73.2883,65.9029,45.1786,-0.1892,-0.32065,-0.26784,148.32,129.28,0,1.2,3.86457,1.15122,1.05423,8.6716,-0.25928,-0.04069,111.23,81.85,27.797,1.22,0.73454,4.51342,0.4129,0.37829,-0.19461,-0.09796,6.668,96.06,65.89,39.914,1.22,20,2,2,72,60,4.7113,90
0.10853,118.7318751,25.5391682,165.4385748,58.03139,37.3276039,16.22973033,42.74562706,91.96690937,117.887725,112.46455,112.7545891,113.1551588,113.9143028,121.0440265,119.46426,120.7709989,110.65377,122.425388,89.25483006,1.823704524,2.385066702,2.049343718,1.359770035,1.241953341,1.134859793,1.577023038,1.095191079,1.524353403,1.098680604,-0.21929,-0.09484,10.9383,0.56114,-0.52581,0.69361,-0.12057,-0.62468,0.69672,-0.66691,-0.68054,0.70555,-0.34195,-0.63437,0.20466,-0.64231,0.25091,0.2677,0.27898,-0.04788,-0.77758,-528.357,74.5407,16.0949,122.8474,134.4192,22.3764,-80.8969,156.412,19.4992,154.1549,168.4773,35.214,-75.2943,30.2822,28.2511,28.7249,152.604,167.4722,4.13,2.76,3.19,2.97,1.5,2.03,1672.33,397.0936,1736.69,462.0261,2637.19,326.9752,5.44,1.67,5.11,6.37,1.56,7.34,2,1,1,40.3,27.8,50.4,51.2,31.8,566.19,553.97,46.942,1.74,-0.23636,-0.0953,0.0002,1.28712,0.50274,156.91,19.117,1.5,0.33863,2.0296,-0.24474,-0.04432,2.4369,1.394010569,1.393950682,2.155859256,57.2917,62.0204,62.985,45.0759,-0.19008,-0.26338,-0.25197,158.32,138.39,0,1.22,3.86457,1.15122,1.05423,8.6716,-0.25928,-0.04069,111.23,81.85,27.797,1.22,0.73454,4.51342,0.4129,0.37829,-0.19461,-0.09796,6.668,96.06,65.89,39.914,1.22,20,2,2,72,60,4.7113,92
0.10853,118.7318751,25.5391682,165.4385748,58.03139,37.3276039,16.22973033,42.74562706,91.96690937,117.887725,112.46455,112.7545891,113.1551588,113.9143028,121.0440265,119.46426,120.7709989,110.65377,122.425388,89.25483006,1.823704524,2.385066702,2.049343718,1.359770035,1.241953341,1.134859793,1.577023038,1.095191079,1.524353403,1.098680604,-0.21929,-0.09484,10.9383,0.56114,-0.52581,0.69361,-0.12057,-0.62468,0.69672,-0.66691,-0.68054,0.70555,-0.34195,-0.63437,0.20466,-0.64231,0.25091,0.2677,0.27898,-0.04788,-0.77758,-528.357,74.5407,16.0949,122.8474,134.4192,22.3764,-80.8969,156.412,19.4992,154.1549,168.4773,35.214,-75.2943,30.2822,28.2511,28.7249,152.604,167.4722,4.13,2.76,3.19,2.97,1.5,2.03,1672.33,397.0936,1736.69,462.0261,2637.19,326.9752,5.44,1.67,5.11,6.37,1.56,7.34,2,1,1,40.3,27.8,50.4,51.2,31.8,566.19,553.97,46.942,1.74,-0.23636,-0.0953,0.0002,1.28712,0.50274,156.91,19.117,1.5,0.33863,2.2262,-0.24633,-0.05114,1.99839,1.39556241,1.393817782,2.155254885,56.907,60.3632,62.4227,44.9719,-0.18959,-0.26207,-0.24905,163.43,143.22,0,1.23,3.86457,1.15122,1.05423,8.6716,-0.25928,-0.04069,111.23,81.85,27.797,1.22,0.73454,4.51342,0.4129,0.37829,-0.19461,-0.09796,6.668,96.06,65.89,39.914,1.22,20,2,2,72,60,4.7113,88
0.10853,118.7318751,25.5391682,165.4385748,58.03139,37.3276039,16.22973033,42.74562706,91.96690937,117.887725,112.46455,112.7545891,113.1551588,113.9143028,121.0440265,119.46426,120.7709989,110.65377,122.425388,89.25483006,1.823704524,2.385066702,2.049343718,1.359770035,1.241953341,1.134859793,1.577023038,1.095191079,1.524353403,1.098680604,-0.21929,-0.09484,10.9383,0.56114,-0.52581,0.69361,-0.12057,-0.62468,0.69672,-0.66691,-0.68054,0.70555,-0.34195,-0.63437,0.20466,-0.64231,0.25091,0.2677,0.27898,-0.04788,-0.77758,-528.357,74.5407,16.0949,122.8474,134.4192,22.3764,-80.8969,156.412,19.4992,154.1549,168.4773,35.214,-75.2943,30.2822,28.2511,28.7249,152.604,167.4722,4.13,2.76,3.19,2.97,1.5,2.03,1672.33,397.0936,1736.69,462.0261,2637.19,326.9752,5.44,1.67,5.11,6.37,1.56,7.34,2,1,1,40.3,27.8,50.4,51.2,31.8,566.19,553.97,46.942,1.74,-0.23636,-0.0953,0.0002,1.28712,0.50274,156.91,19.117,1.5,0.33863,1.9115,-0.24148,-0.05601,1.83005,1.395662733,1.393444436,2.157593332,57.1336,56.0755,62.3703,45.1216,-0.18958,-0.25882,-0.24892,170.09,150.07,0,1.25,3.86457,1.15122,1.05423,8.6716,-0.25928,-0.04069,111.23,81.85,27.797,1.22,0.73454,4.51342,0.4129,0.37829,-0.19461,-0.09796,6.668,96.06,65.89,39.914,1.22,20,2,2,72,60,4.7113,92
0.10853,118.7318751,25.5391682,165.4385748,58.03139,37.3276039,16.22973033,42.74562706,91.96690937,117.887725,112.46455,112.7545891,113.1551588,113.9143028,121.0440265,119.46426,120.7709989,110.65377,122.425388,89.25483006,1.823704524,2.385066702,2.049343718,1.359770035,1.241953341,1.134859793,1.577023038,1.095191079,1.524353403,1.098680604,-0.21929,-0.09484,10.9383,0.56114,-0.52581,0.69361,-0.12057,-0.62468,0.69672,-0.66691,-0.68054,0.70555,-0.34195,-0.63437,0.20466,-0.64231,0.25091,0.2677,0.27898,-0.04788,-0.77758,-528.357,74.5407,16.0949,122.8474,134.4192,22.3764,-80.8969,156.412,19.4992,154.1549,168.4773,35.214,-75.2943,30.2822,28.2511,28.7249,152.604,167.4722,4.13,2.76,3.19,2.97,1.5,2.03,1672.33,397.0936,1736.69,462.0261,2637.19,326.9752,5.44,1.67,5.11,6.37,1.56,7.34,2,1,1,40.3,27.8,50.4,51.2,31.8,566.19,553.97,46.942,1.74,-0.23636,-0.0953,0.0002,1.28712,0.50274,156.91,19.117,1.5,0.33863,3.6089,-0.24359,-0.05168,1.8541,1.389666312,1.395571656,2.157292709,57.0591,58.5897,57.1316,45.2958,-0.20088,-0.20395,-0.22753,195.55,172.87,20.01,1.3,3.86457,1.15122,1.05423,8.6716,-0.25928,-0.04069,111.23,81.85,27.797,1.22,0.73454,4.51342,0.4129,0.37829,-0.19461,-0.09796,6.668,96.06,65.89,39.914,1.22,20,2,2,72,60,4.7113,94
0.10853,118.7318751,25.5391682,165.4385748,58.03139,37.3276039,16.22973033,42.74562706,91.96690937,117.887725,112.46455,112.7545891,113.1551588,113.9143028,121.0440265,119.46426,120.7709989,110.65377,122.425388,89.25483006,1.823704524,2.385066702,2.049343718,1.359770035,1.241953341,1.134859793,1.577023038,1.095191079,1.524353403,1.098680604,-0.21929,-0.09484,10.9383,0.56114,-0.52581,0.69361,-0.12057,-0.62468,0.69672,-0.66691,-0.68054,0.70555,-0.34195,-0.63437,0.20466,-0.64231,0.25091,0.2677,0.27898,-0.04788,-0.77758,-528.357,74.5407,16.0949,122.8474,134.4192,22.3764,-80.8969,156.412,19.4992,154.1549,168.4773,35.214,-75.2943,30.2822,28.2511,28.7249,152.604,167.4722,4.13,2.76,3.19,2.97,1.5,2.03,1672.33,397.0936,1736.69,462.0261,2637.19,326.9752,5.44,1.67,5.11,6.37,1.56,7.34,2,1,1,40.3,27.8,50.4,51.2,31.8,566.19,553.97,46.942,1.74,-0.23636,-0.0953,0.0002,1.28712,0.50274,156.91,19.117,1.5,0.33863,4.2279,-0.2141,-0.0325,1.63202,1.395180029,1.3887995,2.159531862,69.8168,66.0198,65.7176,46.1609,-0.21344,-0.28042,-0.25012,202.25,179.28,12.985,1.32,3.86457,1.15122,1.05423,8.6716,-0.25928,-0.04069,111.23,81.85,27.797,1.22,0.73454,4.51342,0.4129,0.37829,-0.19461,-0.09796,6.668,96.06,65.89,39.914,1.22,20,2,2,72,60,4.7113,88
0.10853,118.7318751,25.5391682,165.4385748,58.03139,37.3276039,16.22973033,42.74562706,91.96690937,117.887725,112.46455,112.7545891,113.1551588,113.9143028,121.0440265,119.46426,120.7709989,110.65377,122.425388,89.25483006,1.823704524,2.385066702,2.049343718,1.359770035,1.241953341,1.134859793,1.577023038,1.095191079,1.524353403,1.098680604,-0.21929,-0.09484,10.9383,0.56114,-0.52581,0.69361,-0.12057,-0.62468,0.69672,-0.66691,-0.68054,0.70555,-0.34195,-0.63437,0.20466,-0.64231,0.25091,0.2677,0.27898,-0.04788,-0.77758,-528.357,74.5407,16.0949,122.8474,134.4192,22.3764,-80.8969,156.412,19.4992,154.1549,168.4773,35.214,-75.2943,30.2822,28.2511,28.7249,152.604,167.4722,4.13,2.76,3.19,2.97,1.5,2.03,1672.33,397.0936,1736.69,462.0261,2637.19,326.9752,5.44,1.67,5.11,6.37,1.56,7.34,2,1,1,40.3,27.8,50.4,51.2,31.8,566.19,553.97,46.942,1.74,-0.23636,-0.0953,0.0002,1.28712,0.50274,156.91,19.117,1.5,0.33863,1.3598,-0.24651,-0.04943,1.74829,1.394739766,1.39438102,2.147688714,65.0966,76.0974,76.0438,44.6057,-0.20377,-0.32382,-0.3239,159.65,138.45,0,1.23,3.86457,1.15122,1.05423,8.6716,-0.25928,-0.04069,111.23,81.85,27.797,1.22,0.73454,4.51342,0.4129,0.37829,-0.19461,-0.09796,6.668,96.06,65.89,39.914,1.22,20,2,2,72,60,4.7113,90
0.10853,118.7318751,25.5391682,165.4385748,58.03139,37.3276039,16.22973033,42.74562706,91.96690937,117.887725,112.46455,112.7545891,113.1551588,113.9143028,121.0440265,119.46426,120.7709989,110.65377,122.425388,89.25483006,1.823704524,2.385066702,2.049343718,1.359770035,1.241953341,1.134859793,1.577023038,1.095191079,1.524353403,1.098680604,-0.21929,-0.09484,10.9383,0.56114,-0.52581,0.69361,-0.12057,-0.62468,0.69672,-0.66691,-0.68054,0.70555,-0.34195,-0.63437,0.20466,-0.64231,0.25091,0.2677,0.27898,-0.04788,-0.77758,-528.357,74.5407,16.0949,122.8474,134.4192,22.3764,-80.8969,156.412,19.4992,154.1549,168.4773,35.214,-75.2943,30.2822,28.2511,28.7249,152.604,167.4722,4.13,2.76,3.19,2.97,1.5,2.03,1672.33,397.0936,1736.69,462.0261,2637.19,326.9752,5.44,1.67,5.11,6.37,1.56,7.34,2,1,1,40.3,27.8,50.4,51.2,31.8,566.19,553.97,46.942,1.74,-0.23636,-0.0953,0.0002,1.28712,0.50274,156.91,19.117,1.5,0.33863,0.7654,-0.25222,-0.05725,0.9929,1.39633826,1.392820999,2.150189302,57.0324,64.6279,74.0593,44.4507,-0.18387,-0.27771,-0.3181,168.98,147.73,0,1.25,3.86457,1.15122,1.05423,8.6716,-0.25928,-0.04069,111.23,81.85,27.797,1.22,0.73454,4.51342,0.4129,0.37829,-0.19461,-0.09796,6.668,96.06,65.89,39.914,1.22,20,2,2,72,60,4.7113,84
0.10853,118.7318751,25.5391682,165.4385748,58.03139,37.3276039,16.22973033,42.74562706,91.96690937,117.887725,112.46455,112.7545891,113.1551588,113.9143028,121.0440265,119.46426,120.7709989,110.65377,122.425388,89.25483006,1.823704524,2.385066702,2.049343718,1.359770035,1.241953341,1.134859793,1.577023038,1.095191079,1.524353403,1.098680604,-0.21929,-0.09484,10.9383,0.56114,-0.52581,0.69361,-0.12057,-0.62468,0.69672,-0.66691,-0.68054,0.70555,-0.34195,-0.63437,0.20466,-0.64231,0.25091,0.2677,0.27898,-0.04788,-0.77758,-528.357,74.5407,16.0949,122.8474,134.4192,22.3764,-80.8969,156.412,19.4992,154.1549,168.4773,35.214,-75.2943,30.2822,28.2511,28.7249,152.604,167.4722,4.13,2.76,3.19,2.97,1.5,2.03,1672.33,397.0936,1736.69,462.0261,2637.19,326.9752,5.44,1.67,5.11,6.37,1.56,7.34,2,1,1,40.3,27.8,50.4,51.2,31.8,566.19,553.97,46.942,1.74,-0.23636,-0.0953,0.0002,1.28712,0.50274,156.91,19.117,1.5,0.33863,2.3761,-0.21856,-0.04408,2.61288,1.373672065,1.415455392,2.158023115,59.9101,61.4614,63.8645,45.5585,-0.196,-0.22578,-0.25235,189.58,176.07,0,1.25,3.86457,1.15122,1.05423,8.6716,-0.25928,-0.04069,111.23,81.85,27.797,1.22,0.73454,4.51342,0.4129,0.37829,-0.19461,-0.09796,6.668,96.06,65.89,39.914,1.22,20,2,2,72,60,4.7113,96
0.10853,118.7318751,25.5391682,165.4385748,58.03139,37.3276039,16.22973033,42.74562706,91.96690937,117.887725,112.46455,112.7545891,113.1551588,113.9143028,121.0440265,119.46426,120.7709989,110.65377,122.425388,89.25483006,1.823704524,2.385066702,2.049343718,1.359770035,1.241953341,1.134859793,1.577023038,1.095191079,1.524353403,1.098680604,-0.21929,-0.09484,10.9383,0.56114,-0.52581,0.69361,-0.12057,-0.62468,0.69672,-0.66691,-0.68054,0.70555,-0.34195,-0.63437,0.20466,-0.64231,0.25091,0.2677,0.27898,-0.04788,-0.77758,-528.357,74.5407,16.0949,122.8474,134.4192,22.3764,-80.8969,156.412,19.4992,154.1549,168.4773,35.214,-75.2943,30.2822,28.2511,28.7249,152.604,167.4722,4.13,2.76,3.19,2.97,1.5,2.03,1672.33,397.0936,1736.69,462.0261,2637.19,326.9752,5.44,1.67,5.11,6.37,1.56,7.34,2,1,1,40.3,27.8,50.4,51.2,31.8,566.19,553.97,46.942,1.74,-0.23636,-0.0953,0.0002,1.28712,0.50274,156.91,19.117,1.5,0.33863,2.618,-0.20971,-0.0361,3.17985,1.406488628,1.391576545,2.159101749,68.1629,80.896,68.3685,45.789,-0.20777,-0.30048,-0.26285,167.19,149.57,16.294,1.23,3.86457,1.15122,1.05423,8.6716,-0.25928,-0.04069,111.23,81.85,27.797,1.22,0.73454,4.51342,0.4129,0.37829,-0.19461,-0.09796,6.668,96.06,65.89,39.914,1.22,20,2,2,72,60,4.7113,94
0.10853,118.7318751,25.5391682,165.4385748,58.03139,37.3276039,16.22973033,42.74562706,91.96690937,117.887725,112.46455,112.7545891,113.1551588,113.9143028,121.0440265,119.46426,120.7709989,110.65377,122.425388,89.25483006,1.823704524,2.385066702,2.049343718,1.359770035,1.241953341,1.134859793,1.577023038,1.095191079,1.524353403,1.098680604,-0.21929,-0.09484,10.9383,0.56114,-0.52581,0.69361,-0.12057,-0.62468,0.69672,-0.66691,-0.68054,0.70555,-0.34195,-0.63437,0.20466,-0.64231,0.25091,0.2677,0.27898,-0.04788,-0.77758,-528.357,74.5407,16.0949,122.8474,134.4192,22.3764,-80.8969,156.412,19.4992,154.1549,168.4773,35.214,-75.2943,30.2822,28.2511,28.7249,152.604,167.4722,4.13,2.76,3.19,2.97,1.5,2.03,1672.33,397.0936,1736.69,462.0261,2637.19,326.9752,5.44,1.67,5.11,6.37,1.56,7.34,2,1,1,40.3,27.8,50.4,51.2,31.8,566.19,553.97,46.942,1.74,-0.23636,-0.0953,0.0002,1.28712,0.50274,156.91,19.117,1.5,0.33863,4.1121,-0.21155,-0.03273,2.48034,1.391425993,1.394806094,2.158856132,68.872,72.6364,68.8084,46.0376,-0.20724,-0.28621,-0.26601,183.82,166.71,14.883,1.25,3.86457,1.15122,1.05423,8.6716,-0.25928,-0.04069,111.23,81.85,27.797,1.22,0.73454,4.51342,0.4129,0.37829,-0.19461,-0.09796,6.668,96.06,65.89,39.914,1.22,20,2,2,72,60,4.7113,89
0.10853,118.7318751,25.5391682,165.4385748,58.03139,37.3276039,16.22973033,42.74562706,91.96690937,117.887725,112.46455,112.7545891,113.1551588,113.9143028,121.0440265,119.46426,120.7709989,110.65377,122.425388,89.25483006,1.823704524,2.385066702,2.049343718,1.359770035,1.241953341,1.134859793,1.577023038,1.095191079,1.524353403,1.098680604,-0.21929,-0.09484,10.9383,0.56114,-0.52581,0.69361,-0.12057,-0.62468,0.69672,-0.66691,-0.68054,0.70555,-0.34195,-0.63437,0.20466,-0.64231,0.25091,0.2677,0.27898,-0.04788,-0.77758,-528.357,74.5407,16.0949,122.8474,134.4192,22.3764,-80.8969,156.412,19.4992,154.1549,168.4773,35.214,-75.2943,30.2822,28.2511,28.7249,152.604,167.4722,4.13,2.76,3.19,2.97,1.5,2.03,1672.33,397.0936,1736.69,462.0261,2637.19,326.9752,5.44,1.67,5.11,6.37,1.56,7.34,2,1,1,40.3,27.8,50.4,51.2,31.8,566.19,553.97,46.942,1.74,-0.23636,-0.0953,0.0002,1.28712,0.50274,156.91,19.117,1.5,0.33863,2.2559,-0.21955,-0.04019,4.93901,1.364593872,1.744379999,2.122291494,66.7623,63.6756,264.3105,46.061,-0.47546,-0.2849,0.46616,152.42,130.48,0,1.23,3.86457,1.15122,1.05423,8.6716,-0.25928,-0.04069,111.23,81.85,27.797,1.22,0.73454,4.51342,0.4129,0.37829,-0.19461,-0.09796,6.668,96.06,65.89,39.914,1.22,20,2,2,72,60,4.7113,90
0.10853,118.7318751,25.5391682,165.4385748,58.03139,37.3276039,16.22973033,42.74562706,91.96690937,117.887725,112.46455,112.7545891,113.1551588,113.9143028,121.0440265,119.46426,120.7709989,110.65377,122.425388,89.25483006,1.823704524,2.385066702,2.049343718,1.359770035,1.241953341,1.134859793,1.577023038,1.095191079,1.524353403,1.098680604,-0.21929,-0.09484,10.9383,0.56114,-0.52581,0.69361,-0.12057,-0.62468,0.69672,-0.66691,-0.68054,0.70555,-0.34195,-0.63437,0.20466,-0.64231,0.25091,0.2677,0.27898,-0.04788,-0.77758,-528.357,74.5407,16.0949,122.8474,134.4192,22.3764,-80.8969,156.412,19.4992,154.1549,168.4773,35.214,-75.2943,30.2822,28.2511,28.7249,152.604,167.4722,4.13,2.76,3.19,2.97,1.5,2.03,1672.33,397.0936,1736.69,462.0261,2637.19,326.9752,5.44,1.67,5.11,6.37,1.56,7.34,2,1,1,40.3,27.8,50.4,51.2,31.8,566.19,553.97,46.942,1.74,-0.23636,-0.0953,0.0002,1.28712,0.50274,156.91,19.117,1.5,0.33863,1.7526,-0.21998,-0.04411,2.76445,1.357060225,1.758802824,2.121179405,58.4818,64.8206,308.685,45.6784,-0.44487,-0.26906,0.45312,179.5,163.56,0,1.24,3.86457,1.15122,1.05423,8.6716,-0.25928,-0.04069,111.23,81.85,27.797,1.22,0.73454,4.51342,0.4129,0.37829,-0.19461,-0.09796,6.668,96.06,65.89,39.914,1.22,20,2,2,72,60,4.7113,96
0.07159,118.1051242,26.33285758,165.0975294,57.60024669,37.81000733,16.05407892,12.48063085,91.63326341,118.2769327,112.5380687,112.9123809,112.9340838,113.9920412,121.0678854,119.485138,120.8660356,110.6200221,123.2402798,89.15402924,1.822112788,2.388153137,2.046385677,1.359685923,1.241956345,1.134211223,1.576870011,1.095098948,1.524443779,1.098846372,-0.21825,-0.09397,11.2889,0.56116,-0.53067,0.69464,-0.11993,-0.62527,0.69645,-0.66683,-0.68244,0.70559,-0.34156,-0.63325,0.20261,-0.64255,0.25093,0.26725,0.27886,-0.0475,-0.77755,-524.0824,74.9531,16.2865,122.7741,132.8632,22.2714,-80.8224,154.9954,19.6516,154.1953,168.5163,35.1538,-74.5904,30.2267,28.2261,28.6911,151.9188,167.4759,4.13,2.76,3.19,2.97,1.5,2.04,1672.33,417.7927,1735.92,470.8347,2649.03,341.1102,8.56,2.03,6.98,6.31,1.52,7.37,2,1,1,41.9,28.3,50.5,56,32.9,645.67,637.74,46.626,1.8,-0.23636,-0.0953,0.0002,1.28712,0.50274,156.91,19.117,1.5,0.33863,2.1923,-0.22084,-0.04021,5.13729,1.33526906,1.082530447,2.139685776,76.0903,53.948,24.9936,47.6452,-0.40135,-0.2399,0.26055,176.64,157.05,0,1.25,4.51342,0.4129,0.37829,6.668,-0.19461,-0.09796,96.06,65.89,39.914,1.22,0.73454,4.51342,0.4129,0.37829,-0.19461,-0.09796,6.668,96.06,65.89,39.914,1.22,20,2,2,48,50,4.7113,88
0.07159,118.1051242,26.33285758,165.0975294,57.60024669,37.81000733,16.05407892,12.48063085,91.63326341,118.2769327,112.5380687,112.9123809,112.9340838,113.9920412,121.0678854,119.485138,120.8660356,110.6200221,123.2402798,89.15402924,1.822112788,2.388153137,2.046385677,1.359685923,1.241956345,1.134211223,1.576870011,1.095098948,1.524443779,1.098846372,-0.21825,-0.09397,11.2889,0.56116,-0.53067,0.69464,-0.11993,-0.62527,0.69645,-0.66683,-0.68244,0.70559,-0.34156,-0.63325,0.20261,-0.64255,0.25093,0.26725,0.27886,-0.0475,-0.77755,-524.0824,74.9531,16.2865,122.7741,132.8632,22.2714,-80.8224,154.9954,19.6516,154.1953,168.5163,35.1538,-74.5904,30.2267,28.2261,28.6911,151.9188,167.4759,4.13,2.76,3.19,2.97,1.5,2.04,1672.33,417.7927,1735.92,470.8347,2649.03,341.1102,8.56,2.03,6.98,6.31,1.52,7.37,2,1,1,41.9,28.3,50.5,56,32.9,645.67,637.74,46.626,1.8,-0.23636,-0.0953,0.0002,1.28712,0.50274,156.91,19.117,1.5,0.33863,2.8483,-0.21523,-0.03709,4.92527,1.335512075,1.082542727,2.140929785,77.5506,54.0531,25.1161,47.7716,-0.40479,-0.23858,0.26009,196.68,175.34,0,1.3,4.51342,0.4129,0.37829,6.668,-0.19461,-0.09796,96.06,65.89,39.914,1.22,0.73454,4.51342,0.4129,0.37829,-0.19461,-0.09796,6.668,96.06,65.89,39.914,1.22,20,2,2,48,50,4.7113,88
0.07159,118.1051242,26.33285758,165.0975294,57.60024669,37.81000733,16.05407892,12.48063085,91.63326341,118.2769327,112.5380687,112.9123809,112.9340838,113.9920412,121.0678854,119.485138,120.8660356,110.6200221,123.2402798,89.15402924,1.822112788,2.388153137,2.046385677,1.359685923,1.241956345,1.134211223,1.576870011,1.095098948,1.524443779,1.098846372,-0.21825,-0.09397,11.2889,0.56116,-0.53067,0.69464,-0.11993,-0.62527,0.69645,-0.66683,-0.68244,0.70559,-0.34156,-0.63325,0.20261,-0.64255,0.25093,0.26725,0.27886,-0.0475,-0.77755,-524.0824,74.9531,16.2865,122.7741,132.8632,22.2714,-80.8224,154.9954,19.6516,154.1953,168.5163,35.1538,-74.5904,30.2267,28.2261,28.6911,151.9188,167.4759,4.13,2.76,3.19,2.97,1.5,2.04,1672.33,417.7927,1735.92,470.8347,2649.03,341.1102,8.56,2.03,6.98,6.31,1.52,7.37,2,1,1,41.9,28.3,50.5,56,32.9,645.67,637.74,46.626,1.8,-0.23636,-0.0953,0.0002,1.28712,0.50274,156.91,19.117,1.5,0.33863,3.6507,-0.20429,-0.03219,3.96281,1.336060249,1.082655658,2.142009543,80.4639,54.5227,25.3181,47.9393,-0.4117,-0.23687,0.25854,206.55,184.2,6.927,1.32,4.51342,0.4129,0.37829,6.668,-0.19461,-0.09796,96.06,65.89,39.914,1.22,0.73454,4.51342,0.4129,0.37829,-0.19461,-0.09796,6.668,96.06,65.89,39.914,1.22,20,2,2,48,50,4.7113,90
0.07159,118.1051242,26.33285758,165.0975294,57.60024669,37.81000733,16.05407892,12.48063085,91.63326341,118.2769327,112.5380687,112.9123809,112.9340838,113.9920412,121.0678854,119.485138,120.8660356,110.6200221,123.2402798,89.15402924,1.822112788,2.388153137,2.046385677,1.359685923,1.241956345,1.134211223,1.576870011,1.095098948,1.524443779,1.098846372,-0.21825,-0.09397,11.2889,0.56116,-0.53067,0.69464,-0.11993,-0.62527,0.69645,-0.66683,-0.68244,0.70559,-0.34156,-0.63325,0.20261,-0.64255,0.25093,0.26725,0.27886,-0.0475,-0.77755,-524.0824,74.9531,16.2865,122.7741,132.8632,22.2714,-80.8224,154.9954,19.6516,154.1953,168.5163,35.1538,-74.5904,30.2267,28.2261,28.6911,151.9188,167.4759,4.13,2.76,3.19,2.97,1.5,2.04,1672.33,417.7927,1735.92,470.8347,2649.03,341.1102,8.56,2.03,6.98,6.31,1.52,7.37,2,1,1,41.9,28.3,50.5,56,32.9,645.67,637.74,46.626,1.8,-0.23636,-0.0953,0.0002,1.28712,0.50274,156.91,19.117,1.5,0.33863,2.3924,-0.21168,-0.04922,2.6148,1.335792225,1.082808687,2.139996571,76.0005,54.1985,24.997,47.5898,-0.40186,-0.24076,0.26102,256.64,240.67,0,1.37,4.51342,0.4129,0.37829,6.668,-0.19461,-0.09796,96.06,65.89,39.914,1.22,0.73454,4.51342,0.4129,0.37829,-0.19461,-0.09796,6.668,96.06,65.89,39.914,1.22,20,2,2,48,50,4.7113,94
0.07159,118.1051242,26.33285758,165.0975294,57.60024669,37.81000733,16.05407892,12.48063085,91.63326341,118.2769327,112.5380687,112.9123809,112.9340838,113.9920412,121.0678854,119.485138,120.8660356,110.6200221,123.2402798,89.15402924,1.822112788,2.388153137,2.046385677,1.359685923,1.241956345,1.134211223,1.576870011,1.095098948,1.524443779,1.098846372,-0.21825,-0.09397,11.2889,0.56116,-0.53067,0.69464,-0.11993,-0.62527,0.69645,-0.66683,-0.68244,0.70559,-0.34156,-0.63325,0.20261,-0.64255,0.25093,0.26725,0.27886,-0.0475,-0.77755,-524.0824,74.9531,16.2865,122.7741,132.8632,22.2714,-80.8224,154.9954,19.6516,154.1953,168.5163,35.1538,-74.5904,30.2267,28.2261,28.6911,151.9188,167.4759,4.13,2.76,3.19,2.97,1.5,2.04,1672.33,417.7927,1735.92,470.8347,2649.03,341.1102,8.56,2.03,6.98,6.31,1.52,7.37,2,1,1,41.9,28.3,50.5,56,32.9,645.67,637.74,46.626,1.8,-0.23636,-0.0953,0.0002,1.28712,0.50274,156.91,19.117,1.5,0.33863,0.6931,-0.22011,-0.04053,5.028,1.335441429,1.082620353,2.139067194,76.9101,55.0815,25.1027,47.6047,-0.4044,-0.2402,0.26023,182.38,161.65,0,1.27,4.51342,0.4129,0.37829,6.668,-0.19461,-0.09796,96.06,65.89,39.914,1.22,0.73454,4.51342,0.4129,0.37829,-0.19461,-0.09796,6.668,96.06,65.89,39.914,1.22,20,2,2,48,50,4.7113,88
0.07159,118.1051242,26.33285758,165.0975294,57.60024669,37.81000733,16.05407892,12.48063085,91.63326341,118.2769327,112.5380687,112.9123809,112.9340838,113.9920412,121.0678854,119.485138,120.8660356,110.6200221,123.2402798,89.15402924,1.822112788,2.388153137,2.046385677,1.359685923,1.241956345,1.134211223,1.576870011,1.095098948,1.524443779,1.098846372,-0.21825,-0.09397,11.2889,0.56116,-0.53067,0.69464,-0.11993,-0.62527,0.69645,-0.66683,-0.68244,0.70559,-0.34156,-0.63325,0.20261,-0.64255,0.25093,0.26725,0.27886,-0.0475,-0.77755,-524.0824,74.9531,16.2865,122.7741,132.8632,22.2714,-80.8224,154.9954,19.6516,154.1953,168.5163,35.1538,-74.5904,30.2267,28.2261,28.6911,151.9188,167.4759,4.13,2.76,3.19,2.97,1.5,2.04,1672.33,417.7927,1735.92,470.8347,2649.03,341.1102,8.56,2.03,6.98,6.31,1.52,7.37,2,1,1,41.9,28.3,50.5,56,32.9,645.67,637.74,46.626,1.8,-0.23636,-0.0953,0.0002,1.28712,0.50274,156.91,19.117,1.5,0.33863,0.2607,-0.22356,-0.04833,4.9591,1.335502382,1.082705861,2.137239584,74.5326,55.3188,24.9839,47.4463,-0.39952,-0.24273,0.26114,192.37,170.74,0,1.29,4.51342,0.4129,0.37829,6.668,-0.19461,-0.09796,96.06,65.89,39.914,1.22,0.73454,4.51342,0.4129,0.37829,-0.19461,-0.09796,6.668,96.06,65.89,39.914,1.22,20,2,2,48,50,4.7113,90
0.07159,118.1051242,26.33285758,165.0975294,57.60024669,37.81000733,16.05407892,12.48063085,91.63326341,118.2769327,112.5380687,112.9123809,112.9340838,113.9920412,121.0678854,119.485138,120.8660356,110.6200221,123.2402798,89.15402924,1.822112788,2.388153137,2.046385677,1.359685923,1.241956345,1.134211223,1.576870011,1.095098948,1.524443779,1.098846372,-0.21825,-0.09397,11.2889,0.56116,-0.53067,0.69464,-0.11993,-0.62527,0.69645,-0.66683,-0.68244,0.70559,-0.34156,-0.63325,0.20261,-0.64255,0.25093,0.26725,0.27886,-0.0475,-0.77755,-524.0824,74.9531,16.2865,122.7741,132.8632,22.2714,-80.8224,154.9954,19.6516,154.1953,168.5163,35.1538,-74.5904,30.2267,28.2261,28.6911,151.9188,167.4759,4.13,2.76,3.19,2.97,1.5,2.04,1672.33,417.7927,1735.92,470.8347,2649.03,341.1102,8.56,2.03,6.98,6.31,1.52,7.37,2,1,1,41.9,28.3,50.5,56,32.9,645.67,637.74,46.626,1.8,-0.23636,-0.0953,0.0002,1.28712,0.50274,156.91,19.117,1.5,0.33863,0.6681,-0.2255,-0.04999,4.87543,1.33541371,1.08273858,2.136619011,73.8852,55.5374,24.9906,47.4049,-0.39819,-0.24336,0.26141,197.46,175.57,0,1.3,4.51342,0.4129,0.37829,6.668,-0.19461,-0.09796,96.06,65.89,39.914,1.22,0.73454,4.51342,0.4129,0.37829,-0.19461,-0.09796,6.668,96.06,65.89,39.914,1.22,20,2,2,48,50,4.7113,90
0.07159,118.1051242,26.33285758,165.0975294,57.60024669,37.81000733,16.05407892,12.48063085,91.63326341,118.2769327,112.5380687,112.9123809,112.9340838,113.9920412,121.0678854,119.485138,120.8660356,110.6200221,123.2402798,89.15402924,1.822112788,2.388153137,2.046385677,1.359685923,1.241956345,1.134211223,1.576870011,1.095098948,1.524443779,1.098846372,-0.21825,-0.09397,11.2889,0.56116,-0.53067,0.69464,-0.11993,-0.62527,0.69645,-0.66683,-0.68244,0.70559,-0.34156,-0.63325,0.20261,-0.64255,0.25093,0.26725,0.27886,-0.0475,-0.77755,-524.0824,74.9531,16.2865,122.7741,132.8632,22.2714,-80.8224,154.9954,19.6516,154.1953,168.5163,35.1538,-74.5904,30.2267,28.2261,28.6911,151.9188,167.4759,4.13,2.76,3.19,2.97,1.5,2.04,1672.33,417.7927,1735.92,470.8347,2649.03,341.1102,8.56,2.03,6.98,6.31,1.52,7.37,2,1,1,41.9,28.3,50.5,56,32.9,645.67,637.74,46.626,1.8,-0.23636,-0.0953,0.0002,1.28712,0.50274,156.91,19.117,1.5,0.33863,1.2378,-0.23119,-0.05632,2.63483,1.335368038,1.08277403,2.135847639,71.8094,54.9506,24.7762,47.2211,-0.39356,-0.24551,0.26237,212.34,189.1,0,1.33,4.51342,0.4129,0.37829,6.668,-0.19461,-0.09796,96.06,65.89,39.914,1.22,0.73454,4.51342,0.4129,0.37829,-0.19461,-0.09796,6.668,96.06,65.89,39.914,1.22,20,2,2,48,50,4.7113,90
0.07159,118.1051242,26.33285758,165.0975294,57.60024669,37.81000733,16.05407892,12.48063085,91.63326341,118.2769327,112.5380687,112.9123809,112.9340838,113.9920412,121.0678854,119.485138,120.8660356,110.6200221,123.2402798,89.15402924,1.822112788,2.388153137,2.046385677,1.359685923,1.241956345,1.134211223,1.576870011,1.095098948,1.524443779,1.098846372,-0.21825,-0.09397,11.2889,0.56116,-0.53067,0.69464,-0.11993,-0.62527,0.69645,-0.66683,-0.68244,0.70559,-0.34156,-0.63325,0.20261,-0.64255,0.25093,0.26725,0.27886,-0.0475,-0.77755,-524.0824,74.9531,16.2865,122.7741,132.8632,22.2714,-80.8224,154.9954,19.6516,154.1953,168.5163,35.1538,-74.5904,30.2267,28.2261,28.6911,151.9188,167.4759,4.13,2.76,3.19,2.97,1.5,2.04,1672.33,417.7927,1735.92,470.8347,2649.03,341.1102,8.56,2.03,6.98,6.31,1.52,7.37,2,1,1,41.9,28.3,50.5,56,32.9,645.67,637.74,46.626,1.8,-0.23636,-0.0953,0.0002,1.28712,0.50274,156.91,19.117,1.5,0.33863,1.9873,-0.21323,-0.03856,1.93287,1.335025448,1.082642758,2.141028746,75.5592,53.2395,25.12,47.6334,-0.4004,-0.23897,0.26264,206.47,184.17,6.928,1.32,4.51342,0.4129,0.37829,6.668,-0.19461,-0.09796,96.06,65.89,39.914,1.22,0.73454,4.51342,0.4129,0.37829,-0.19461,-0.09796,6.668,96.06,65.89,39.914,1.22,20,2,2,48,50,4.7113,88
0.07159,118.1051242,26.33285758,165.0975294,57.60024669,37.81000733,16.05407892,12.48063085,91.63326341,118.2769327,112.5380687,112.9123809,112.9340838,113.9920412,121.0678854,119.485138,120.8660356,110.6200221,123.2402798,89.15402924,1.822112788,2.388153137,2.046385677,1.359685923,1.241956345,1.134211223,1.576870011,1.095098948,1.524443779,1.098846372,-0.21825,-0.09397,11.2889,0.56116,-0.53067,0.69464,-0.11993,-0.62527,0.69645,-0.66683,-0.68244,0.70559,-0.34156,-0.63325,0.20261,-0.64255,0.25093,0.26725,0.27886,-0.0475,-0.77755,-524.0824,74.9531,16.2865,122.7741,132.8632,22.2714,-80.8224,154.9954,19.6516,154.1953,168.5163,35.1538,-74.5904,30.2267,28.2261,28.6911,151.9188,167.4759,4.13,2.76,3.19,2.97,1.5,2.04,1672.33,417.7927,1735.92,470.8347,2649.03,341.1102,8.56,2.03,6.98,6.31,1.52,7.37,2,1,1,41.9,28.3,50.5,56,32.9,645.67,637.74,46.626,1.8,-0.23636,-0.0953,0.0002,1.28712,0.50274,156.91,19.117,1.5,0.33863,1.6657,-0.22553,-0.0457,3.18971,1.335203776,1.082611279,2.137353791,73.7203,54.76,24.9006,47.4253,-0.39693,-0.24267,0.26171,182.32,161.63,0,1.27,4.51342,0.4129,0.37829,6.668,-0.19461,-0.09796,96.06,65.89,39.914,1.22,0.73454,4.51342,0.4129,0.37829,-0.19461,-0.09796,6.668,96.06,65.89,39.914,1.22,20,2,2,48,50,4.7113,88
0.07159,118.1051242,26.33285758,165.0975294,57.60024669,37.81000733,16.05407892,12.48063085,91.63326341,118.2769327,112.5380687,112.9123809,112.9340838,113.9920412,121.0678854,119.485138,120.8660356,110.6200221,123.2402798,89.15402924,1.822112788,2.388153137,2.046385677,1.359685923,1.241956345,1.134211223,1.576870011,1.095098948,1.524443779,1.098846372,-0.21825,-0.09397,11.2889,0.56116,-0.53067,0.69464,-0.11993,-0.62527,0.69645,-0.66683,-0.68244,0.70559,-0.34156,-0.63325,0.20261,-0.64255,0.25093,0.26725,0.27886,-0.0475,-0.77755,-524.0824,74.9531,16.2865,122.7741,132.8632,22.2714,-80.8224,154.9954,19.6516,154.1953,168.5163,35.1538,-74.5904,30.2267,28.2261,28.6911,151.9188,167.4759,4.13,2.76,3.19,2.97,1.5,2.04,1672.33,417.7927,1735.92,470.8347,2649.03,341.1102,8.56,2.03,6.98,6.31,1.52,7.37,2,1,1,41.9,28.3,50.5,56,32.9,645.67,637.74,46.626,1.8,-0.23636,-0.0953,0.0002,1.28712,0.50274,156.91,19.117,1.5,0.33863,1.9367,-0.22804,-0.0489,2.35585,1.335165392,1.082728647,2.137088373,73.119,55.0719,24.9374,47.3425,-0.3967,-0.24301,0.26194,192.36,170.76,0,1.29,4.51342,0.4129,0.37829,6.668,-0.19461,-0.09796,96.06,65.89,39.914,1.22,0.73454,4.51342,0.4129,0.37829,-0.19461,-0.09796,6.668,96.06,65.89,39.914,1.22,20,2,2,48,50,4.7113,88
0.07159,118.1051242,26.33285758,165.0975294,57.60024669,37.81000733,16.05407892,12.48063085,91.63326341,118.2769327,112.5380687,112.9123809,112.9340838,113.9920412,121.0678854,119.485138,120.8660356,110.6200221,123.2402798,89.15402924,1.822112788,2.388153137,2.046385677,1.359685923,1.241956345,1.134211223,1.576870011,1.095098948,1.524443779,1.098846372,-0.21825,-0.09397,11.2889,0.56116,-0.53067,0.69464,-0.11993,-0.62527,0.69645,-0.66683,-0.68244,0.70559,-0.34156,-0.63325,0.20261,-0.64255,0.25093,0.26725,0.27886,-0.0475,-0.77755,-524.0824,74.9531,16.2865,122.7741,132.8632,22.2714,-80.8224,154.9954,19.6516,154.1953,168.5163,35.1538,-74.5904,30.2267,28.2261,28.6911,151.9188,167.4759,4.13,2.76,3.19,2.97,1.5,2.04,1672.33,417.7927,1735.92,470.8347,2649.03,341.1102,8.56,2.03,6.98,6.31,1.52,7.37,2,1,1,41.9,28.3,50.5,56,32.9,645.67,637.74,46.626,1.8,-0.23636,-0.0953,0.0002,1.28712,0.50274,156.91,19.117,1.5,0.33863,2.3803,-0.22965,-0.05067,1.32185,1.335054857,1.082942287,2.135787738,72.9666,55.4976,25.0153,47.319,-0.3967,-0.24301,0.26194,197.46,175.58,0,1.3,4.51342,0.4129,0.37829,6.668,-0.19461,-0.09796,96.06,65.89,39.914,1.22,0.73454,4.51342,0.4129,0.37829,-0.19461,-0.09796,6.668,96.06,65.89,39.914,1.22,20,2,2,48,50,4.7113,90
0.07159,118.1051242,26.33285758,165.0975294,57.60024669,37.81000733,16.05407892,12.48063085,91.63326341,118.2769327,112.5380687,112.9123809,112.9340838,113.9920412,121.0678854,119.485138,120.8660356,110.6200221,123.2402798,89.15402924,1.822112788,2.388153137,2.046385677,1.359685923,1.241956345,1.134211223,1.576870011,1.095098948,1.524443779,1.098846372,-0.21825,-0.09397,11.2889,0.56116,-0.53067,0.69464,-0.11993,-0.62527,0.69645,-0.66683,-0.68244,0.70559,-0.34156,-0.63325,0.20261,-0.64255,0.25093,0.26725,0.27886,-0.0475,-0.77755,-524.0824,74.9531,16.2865,122.7741,132.8632,22.2714,-80.8224,154.9954,19.6516,154.1953,168.5163,35.1538,-74.5904,30.2267,28.2261,28.6911,151.9188,167.4759,4.13,2.76,3.19,2.97,1.5,2.04,1672.33,417.7927,1735.92,470.8347,2649.03,341.1102,8.56,2.03,6.98,6.31,1.52,7.37,2,1,1,41.9,28.3,50.5,56,32.9,645.67,637.74,46.626,1.8,-0.23636,-0.0953,0.0002,1.28712,0.50274,156.91,19.117,1.5,0.33863,2.9652,-0.22344,-0.04601,2.56386,1.335157403,1.082694239,2.137650768,74.7031,62.3784,24.9916,47.4507,-0.39753,-0.24906,0.26005,181.47,161.56,0,1.27,4.51342,0.4129,0.37829,6.668,-0.19461,-0.09796,96.06,65.89,39.914,1.22,0.73454,4.51342,0.4129,0.37829,-0.19461,-0.09796,6.668,96.06,65.89,39.914,1.22,20,2,2,48,50,4.7113,90
0.07159,118.1051242,26.33285758,165.0975294,57.60024669,37.81000733,16.05407892,12.48063085,91.63326341,118.2769327,112.5380687,112.9123809,112.9340838,113.9920412,121.0678854,119.485138,120.8660356,110.6200221,123.2402798,89.15402924,1.822112788,2.388153137,2.046385677,1.359685923,1.241956345,1.134211223,1.576870011,1.095098948,1.524443779,1.098846372,-0.21825,-0.09397,11.2889,0.56116,-0.53067,0.69464,-0.11993,-0.62527,0.69645,-0.66683,-0.68244,0.70559,-0.34156,-0.63325,0.20261,-0.64255,0.25093,0.26725,0.27886,-0.0475,-0.77755,-524.0824,74.9531,16.2865,122.7741,132.8632,22.2714,-80.8224,154.9954,19.6516,154.1953,168.5163,35.1538,-74.5904,30.2267,28.2261,28.6911,151.9188,167.4759,4.13,2.76,3.19,2.97,1.5,2.04,1672.33,417.7927,1735.92,470.8347,2649.03,341.1102,8.56,2.03,6.98,6.31,1.52,7.37,2,1,1,41.9,28.3,50.5,56,32.9,645.67,637.74,46.626,1.8,-0.23636,-0.0953,0.0002,1.28712,0.50274,156.91,19.117,1.5,0.33863,3.4279,-0.23219,-0.04692,0.92771,1.334270952,1.083642653,2.13662904,71.4802,55.4445,25.3262,47.1545,-0.39755,-0.24405,0.26576,196.13,175.46,0,1.29,4.51342,0.4129,0.37829,6.668,-0.19461,-0.09796,96.06,65.89,39.914,1.22,0.73454,4.51342,0.4129,0.37829,-0.19461,-0.09796,6.668,96.06,65.89,39.914,1.22,20,2,2,48,50,4.7113,88
0.07159,118.1051242,26.33285758,165.0975294,57.60024669,37.81000733,16.05407892,12.48063085,91.63326341,118.2769327,112.5380687,112.9123809,112.9340838,113.9920412,121.0678854,119.485138,120.8660356,110.6200221,123.2402798,89.15402924,1.822112788,2.388153137,2.046385677,1.359685923,1.241956345,1.134211223,1.576870011,1.095098948,1.524443779,1.098846372,-0.21825,-0.09397,11.2889,0.56116,-0.53067,0.69464,-0.11993,-0.62527,0.69645,-0.66683,-0.68244,0.70559,-0.34156,-0.63325,0.20261,-0.64255,0.25093,0.26725,0.27886,-0.0475,-0.77755,-524.0824,74.9531,16.2865,122.7741,132.8632,22.2714,-80.8224,154.9954,19.6516,154.1953,168.5163,35.1538,-74.5904,30.2267,28.2261,28.6911,151.9188,167.4759,4.13,2.76,3.19,2.97,1.5,2.04,1672.33,417.7927,1735.92,470.8347,2649.03,341.1102,8.56,2.03,6.98,6.31,1.52,7.37,2,1,1,41.9,28.3,50.5,56,32.9,645.67,637.74,46.626,1.8,-0.23636,-0.0953,0.0002,1.28712,0.50274,156.91,19.117,1.5,0.33863,3.7955,-0.23271,-0.0497,0.91151,1.334196292,1.083518091,2.136319617,71.0826,56.2481,25.1794,47.0993,-0.39493,-0.25324,0.26497,208.32,188.42,0,1.31,4.51342,0.4129,0.37829,6.668,-0.19461,-0.09796,96.06,65.89,39.914,1.22,0.73454,4.51342,0.4129,0.37829,-0.19461,-0.09796,6.668,96.06,65.89,39.914,1.22,20,2,2,48,50,4.7113,90
0.07159,118.1051242,26.33285758,165.0975294,57.60024669,37.81000733,16.05407892,12.48063085,91.63326341,118.2769327,112.5380687,112.9123809,112.9340838,113.9920412,121.0678854,119.485138,120.8660356,110.6200221,123.2402798,89.15402924,1.822112788,2.388153137,2.046385677,1.359685923,1.241956345,1.134211223,1.576870011,1.095098948,1.524443779,1.098846372,-0.21825,-0.09397,11.2889,0.56116,-0.53067,0.69464,-0.11993,-0.62527,0.69645,-0.66683,-0.68244,0.70559,-0.34156,-0.63325,0.20261,-0.64255,0.25093,0.26725,0.27886,-0.0475,-0.77755,-524.0824,74.9531,16.2865,122.7741,132.8632,22.2714,-80.8224,154.9954,19.6516,154.1953,168.5163,35.1538,-74.5904,30.2267,28.2261,28.6911,151.9188,167.4759,4.13,2.76,3.19,2.97,1.5,2.04,1672.33,417.7927,1735.92,470.8347,2649.03,341.1102,8.56,2.03,6.98,6.31,1.52,7.37,2,1,1,41.9,28.3,50.5,56,32.9,645.67,637.74,46.626,1.8,-0.23636,-0.0953,0.0002,1.28712,0.50274,156.91,19.117,1.5,0.33863,1.1491,-0.22853,-0.05518,2.2497,1.335263682,1.083061956,2.13460868,72.5517,63.0431,25.0159,47.2048,-0.39538,-0.25186,0.26153,202.31,180.04,0,1.31,4.51342,0.4129,0.37829,6.668,-0.19461,-0.09796,96.06,65.89,39.914,1.22,0.73454,4.51342,0.4129,0.37829,-0.19461,-0.09796,6.668,96.06,65.89,39.914,1.22,20,2,2,48,50,4.7113,90
0.07159,118.1051242,26.33285758,165.0975294,57.60024669,37.81000733,16.05407892,12.48063085,91.63326341,118.2769327,112.5380687,112.9123809,112.9340838,113.9920412,121.0678854,119.485138,120.8660356,110.6200221,123.2402798,89.15402924,1.822112788,2.388153137,2.046385677,1.359685923,1.241956345,1.134211223,1.576870011,1.095098948,1.524443779,1.098846372,-0.21825,-0.09397,11.2889,0.56116,-0.53067,0.69464,-0.11993,-0.62527,0.69645,-0.66683,-0.68244,0.70559,-0.34156,-0.63325,0.20261,-0.64255,0.25093,0.26725,0.27886,-0.0475,-0.77755,-524.0824,74.9531,16.2865,122.7741,132.8632,22.2714,-80.8224,154.9954,19.6516,154.1953,168.5163,35.1538,-74.5904,30.2267,28.2261,28.6911,151.9188,167.4759,4.13,2.76,3.19,2.97,1.5,2.04,1672.33,417.7927,1735.92,470.8347,2649.03,341.1102,8.56,2.03,6.98,6.31,1.52,7.37,2,1,1,41.9,28.3,50.5,56,32.9,645.67,637.74,46.626,1.8,-0.23636,-0.0953,0.0002,1.28712,0.50274,156.91,19.117,1.5,0.33863,1.0556,-0.23756,-0.06081,0.36591,1.33505855,1.083102062,2.132380999,69.7876,56.8408,24.9684,46.9987,-0.39177,-0.24742,0.26454,218.13,194.03,0,1.35,4.51342,0.4129,0.37829,6.668,-0.19461,-0.09796,96.06,65.89,39.914,1.22,0.73454,4.51342,0.4129,0.37829,-0.19461,-0.09796,6.668,96.06,65.89,39.914,1.22,20,2,2,48,50,4.7113,88
0.07159,118.1051242,26.33285758,165.0975294,57.60024669,37.81000733,16.05407892,12.48063085,91.63326341,118.2769327,112.5380687,112.9123809,112.9340838,113.9920412,121.0678854,119.485138,120.8660356,110.6200221,123.2402798,89.15402924,1.822112788,2.388153137,2.046385677,1.359685923,1.241956345,1.134211223,1.576870011,1.095098948,1.524443779,1.098846372,-0.21825,-0.09397,11.2889,0.56116,-0.53067,0.69464,-0.11993,-0.62527,0.69645,-0.66683,-0.68244,0.70559,-0.34156,-0.63325,0.20261,-0.64255,0.25093,0.26725,0.27886,-0.0475,-0.77755,-524.0824,74.9531,16.2865,122.7741,132.8632,22.2714,-80.8224,154.9954,19.6516,154.1953,168.5163,35.1538,-74.5904,30.2267,28.2261,28.6911,151.9188,167.4759,4.13,2.76,3.19,2.97,1.5,2.04,1672.33,417.7927,1735.92,470.8347,2649.03,341.1102,8.56,2.03,6.98,6.31,1.52,7.37,2,1,1,41.9,28.3,50.5,56,32.9,645.67,637.74,46.626,1.8,-0.23636,-0.0953,0.0002,1.28712,0.50274,156.91,19.117,1.5,0.33863,2.2646,-0.21032,-0.05102,1.30787,1.334051593,1.083551364,2.143298044,74.2313,54.3213,25.3043,47.3599,-0.40035,-0.24457,0.26576,221.95,208.13,0,1.31,4.51342,0.4129,0.37829,6.668,-0.19461,-0.09796,96.06,65.89,39.914,1.22,0.73454,4.51342,0.4129,0.37829,-0.19461,-0.09796,6.668,96.06,65.89,39.914,1.22,20,2,2,48,50,4.7113,89
0.07159,118.1051242,26.33285758,165.0975294,57.60024669,37.81000733,16.05407892,12.48063085,91.63326341,118.2769327,112.5380687,112.9123809,112.9340838,113.9920412,121.0678854,119.485138,120.8660356,110.6200221,123.2402798,89.15402924,1.822112788,2.388153137,2.046385677,1.359685923,1.241956345,1.134211223,1.576870011,1.095098948,1.524443779,1.098846372,-0.21825,-0.09397,11.2889,0.56116,-0.53067,0.69464,-0.11993,-0.62527,0.69645,-0.66683,-0.68244,0.70559,-0.34156,-0.63325,0.20261,-0.64255,0.25093,0.26725,0.27886,-0.0475,-0.77755,-524.0824,74.9531,16.2865,122.7741,132.8632,22.2714,-80.8224,154.9954,19.6516,154.1953,168.5163,35.1538,-74.5904,30.2267,28.2261,28.6911,151.9188,167.4759,4.13,2.76,3.19,2.97,1.5,2.04,1672.33,417.7927,1735.92,470.8347,2649.03,341.1102,8.56,2.03,6.98,6.31,1.52,7.37,2,1,1,41.9,28.3,50.5,56,32.9,645.67,637.74,46.626,1.8,-0.23636,-0.0953,0.0002,1.28712,0.50274,156.91,19.117,1.5,0.33863,3.758,-0.21047,-0.035,1.50434,1.334830408,1.083036215,2.143027448,77.314,58.0274,25.4274,47.7777,-0.40538,-0.23869,0.26109,205.65,184.08,5.889,1.31,4.51342,0.4129,0.37829,6.668,-0.19461,-0.09796,96.06,65.89,39.914,1.22,0.73454,4.51342,0.4129,0.37829,-0.19461,-0.09796,6.668,96.06,65.89,39.914,1.22,20,2,2,48,50,4.7113,94
